!!!!SEGMENT: pl-cz--iii-557--003_raszek-wacllaw--sinfonia-ex-c-rondo.krn
!!!cenid: 18xx:1018
!!!COM: Raszek, Wacław
!!!COM-rismid: pe30020314
!!!CDT: <1848->1848
!!!CNT:
!!!OPR: Sinfonia ex C
!!!OTL: Rondo
!!!OMV: 003
!!!PDT:
!!!AGN: Secular
!!!SMS-siglum: PL-CZ
!!!SMS-shelfmark: III-557
!!!SMS-shelfwork: 001-003 M
!!!SMS-variant:
!!!SMS-altvar:
!!!NIFC-rismid: 300001059
!!!system-decoration: [(s1,s2)][(s3,s4)][(s5,s6,s7,s8)]
**kern	**dynam	**kern	**dynam	**kern	**dynam	**kern	**dynam	**kern	**dynam	**kern	**dynam	**kern	**dynam	**kern	**dynam
*part8	*part8	*part7	*part7	*part6	*part6	*part5	*part5	*part4	*part4	*part3	*part3	*part2	*part2	*part1	*part1
*staff8	*	*staff7	*	*staff6	*	*staff5	*	*staff4	*	*staff3	*	*staff2	*	*staff1	*
*Ibass	*	*Iviola	*	*Ivioln	*	*Ivioln	*	*Iempty	*	*Icor	*	*Ioboe	*	*Ioboe	*
*I"Basso	*	*I"Viola	*	*I"Violino Secondo.	*	*I"Violino Primo	*	*I"Corno Secondo in C.	*	*I"Corno Primo in C.	*	*I"Oboe Secundo	*	*I"Oboe Primo.	*
*I'B	*	*I'Vla	*	*I'Vl II	*	*I'Vl I	*	*I'Cor II in C	*	*I'Cor I in C	*	*I'Ob II	*	*I'Ob I	*
*clefF4	*	*clefC3	*	*clefG2	*	*clefG2	*	*clefG2	*	*clefG2	*	*clefG2	*	*clefG2	*
*	*	*	*	*	*	*	*	*Trd0c0	*	*Trd0c0	*	*	*	*	*
*k[]	*	*k[]	*	*k[]	*	*k[]	*	*k[]	*	*k[]	*	*k[]	*	*k[]	*
*C:	*	*C:	*	*C:	*	*C:	*	*C:	*	*C:	*	*C:	*	*C:	*
*M3/8	*	*M3/8	*	*M3/8	*	*M3/8	*	*M3/8	*	*M3/8	*	*M3/8	*	*M3/8	*
*>[A,A,B,C,C,D,D,E,F,F,G,H,H,I,I,J]	*	*>[A,A,B,C,C,D,D,E,F,F,G,H,H,I,I,J]	*	*>[A,A,B,C,C,D,D,E,F,F,G,H,H,I,I,J]	*	*>[A,A,B,C,C,D,D,E,F,F,G,H,H,I,I,J]	*	*>[A,A,B,C,C,D,D,E,F,F,G,H,H,I,I,J]	*	*>[A,A,B,C,C,D,D,E,F,F,G,H,H,I,I,J]	*	*>[A,A,B,C,C,D,D,E,F,F,G,H,H,I,I,J]	*	*>[A,A,B,C,C,D,D,E,F,F,G,H,H,I,I,J]	*
=1	=1	=1	=1	=1	=1	=1	=1	=1	=1	=1	=1	=1	=1	=1	=1
*>A	*	*>A	*	*>A	*	*>A	*	*>A	*	*>A	*	*>A	*	*>A	*
!!LO:TX:t=P:problem:all\right:global
!!LO:TX:t=P:problem:p=p.:global
!!LO:TX:t=P:problem:pp=pp.:global
!	!	!	!	!	!	!	!	!LO:TX:a:t=P:w źródle grupy taktów pauz od 12 w górę zapisane jako pozioma długa pauza z numerem na górze:problem	!	!LO:TX:a:t=P:w źródle grupy taktów pauz od 12 w górę zapisane jako pozioma długa pauza z numerem na górze:problem	!	!	!	!	!
!	!	!	!	!	!	!	!	!	!	!	!	!LO:TX:a:t=P:w źródle grupy taktów pauz od 12 w górę zapisane jako pozioma długa pauza z numerem na górze:problem	!	!LO:TX:a:t=P:w źródle grupy taktów pauz od 12 w górę zapisane jako pozioma długa pauza z numerem na górze:problem	!
!	!	!	!	!LO:TX:t=P:problem:źródło - skany 9 i 7	!	!	!	!	!	!	!	!	!	!	!
!LO:TX:a:Bi:t=Allegretto	!	!LO:TX:a:Bi:t=Allegretto	!	!LO:TX:a:Bi:t=Allegretto	!	!LO:TX:a:Bi:t=Allegretto	!	!LO:TX:a:Bi:t=Allegretto	!	!LO:TX:a:Bi:t=Allegretto	!	!LO:TX:a:Bi:t=allegro	!	!LO:TX:a:Bi:t=Allegretto	!
!	!	!	!	!	!	!	!	!LO:TX:a:t=16.	!	!LO:TX:a:t=16	!	!LO:TX:a:t=16.	!	!	!
!	!LO:DY:a	!	!LO:DY:a	!	!	!	!	!	!	!	!	!	!	!	!
4C/	p	8c\L	p	8e/L	pp	(4gg\	p	1.r	.	1.r	.	1.r	.	1.r	.
.	.	8c\	.	8e 8G/	.	.	.	.	.	.	.	.	.	.	.
8r	.	8c\J	.	8e/J	.	8ee\)	.	.	.	.	.	.	.	.	.
=2	=2	=2	=2	=2	=2	=2	=2	=2	=2	=2	=2	=2	=2	=2	=2
*	*	*tremolo	*	*tremolo	*	*	*	*	*	*	*	*	*	*	*
4.r	.	8c\L	.	8e 8G/L	.	(4cc\	.	.	.	.	.	.	.	.	.
.	.	8c\	.	8e 8G/	.	.	.	.	.	.	.	.	.	.	.
.	.	8c\J	.	8e 8G/J	.	8ee\)	.	.	.	.	.	.	.	.	.
*	*	*	*	*Xtremolo	*	*	*	*	*	*	*	*	*	*	*
=3	=3	=3	=3	=3	=3	=3	=3	=3	=3	=3	=3	=3	=3	=3	=3
4G\	.	8B/L	.	8f/L	.	(8gg\L	.	.	.	.	.	.	.	.	.
.	.	8B/	.	8f 8G/	.	8ff\	.	.	.	.	.	.	.	.	.
!LO:TX:t=P:problem:w źródle 4r poprawiona na 8r	!	!	!	!	!	!	!	!	!	!	!	!	!	!	!
8r	.	8B/J	.	8f/J	.	8dd\J)	.	.	.	.	.	.	.	.	.
=4	=4	=4	=4	=4	=4	=4	=4	=4	=4	=4	=4	=4	=4	=4	=4
*	*	*	*	*tremolo	*	*	*	*	*	*	*	*	*	*	*
4.r	.	8d\L	.	8f 8G/L	.	(4b/	.	.	.	.	.	.	.	.	.
.	.	8d\	.	8f 8G/	.	.	.	.	.	.	.	.	.	.	.
.	.	8d\J	.	8f 8G/J	.	8g/)	.	.	.	.	.	.	.	.	.
=5	=5	=5	=5	=5	=5	=5	=5	=5	=5	=5	=5	=5	=5	=5	=5
4c\	.	8c\L	.	8e 8G/L	.	(16cc\LL	.	1.r	.	1.r	.	1.r	.	1.r	.
.	.	.	.	.	.	16b\	.	.	.	.	.	.	.	.	.
.	.	8c\	.	8e 8G/	.	16cc\	.	.	.	.	.	.	.	.	.
.	.	.	.	.	.	16dd\	.	.	.	.	.	.	.	.	.
8r	.	8c\J	.	8e 8G/J	.	16ee\	.	.	.	.	.	.	.	.	.
.	.	.	.	.	.	16dd\JJ)	.	.	.	.	.	.	.	.	.
=6	=6	=6	=6	=6	=6	=6	=6	=6	=6	=6	=6	=6	=6	=6	=6
4A\	.	8A/L	.	8c/L	.	(16ee\LL	.	.	.	.	.	.	.	.	.
.	.	.	.	.	.	16dd\	.	.	.	.	.	.	.	.	.
.	.	8A/	.	8c/	.	16ee\	.	.	.	.	.	.	.	.	.
.	.	.	.	.	.	16ff#X\	.	.	.	.	.	.	.	.	.
8r	.	8A/J	.	8c/J	.	16gg\	.	.	.	.	.	.	.	.	.
.	.	.	.	.	.	16ff#\JJ)	.	.	.	.	.	.	.	.	.
*	*	*Xtremolo	*	*Xtremolo	*	*	*	*	*	*	*	*	*	*	*
=7	=7	=7	=7	=7	=7	=7	=7	=7	=7	=7	=7	=7	=7	=7	=7
4G\	.	4G/	.	(8B/L	.	(8gg\L	.	.	.	.	.	.	.	.	.
.	.	.	.	8A/)	.	8ff#X\)	.	.	.	.	.	.	.	.	.
8D\	.	8F#X/	.	8c'/J	.	8aa'\J	.	.	.	.	.	.	.	.	.
=8	=8	=8	=8	=8	=8	=8	=8	=8	=8	=8	=8	=8	=8	=8	=8
*	*	*tremolo	*	*tremolo	*	*	*	*	*	*	*	*	*	*	*
8G\L	.	8G/L	.	8B/L	.	4gg\	.	.	.	.	.	.	.	.	.
(16G\L	.	8G/	.	8B/	.	.	.	.	.	.	.	.	.	.	.
16F\	.	.	.	.	.	.	.	.	.	.	.	.	.	.	.
16E\	.	8G/J	.	8B/J	.	8gg\	.	.	.	.	.	.	.	.	.
16D\JJ)	.	.	.	.	.	.	.	.	.	.	.	.	.	.	.
=9	=9	=9	=9	=9	=9	=9	=9	=9	=9	=9	=9	=9	=9	=9	=9
4C/	.	8c\L	.	8e 8G/L	.	(4gg\	.	1.r	.	1.r	.	1.r	.	1.r	.
.	.	8c\	.	8e 8G/	.	.	.	.	.	.	.	.	.	.	.
8r	.	8c\J	.	8e 8G/J	.	8ee\)	.	.	.	.	.	.	.	.	.
=10	=10	=10	=10	=10	=10	=10	=10	=10	=10	=10	=10	=10	=10	=10	=10
4.r	.	8c\L	.	8e 8G/L	.	4cc\	.	.	.	.	.	.	.	.	.
.	.	8c\	.	8e 8G/	.	.	.	.	.	.	.	.	.	.	.
.	.	8c\J	.	8e 8G/J	.	8ee\	.	.	.	.	.	.	.	.	.
=11	=11	=11	=11	=11	=11	=11	=11	=11	=11	=11	=11	=11	=11	=11	=11
4G\	.	8B/L	.	8f 8G/L	.	(8gg\L	.	.	.	.	.	.	.	.	.
.	.	8B/	.	8f 8G/	.	8ff\)	.	.	.	.	.	.	.	.	.
8r	.	8B/J	.	8f 8G/J	.	8dd'\J	.	.	.	.	.	.	.	.	.
=12	=12	=12	=12	=12	=12	=12	=12	=12	=12	=12	=12	=12	=12	=12	=12
4.r	.	8d\L	.	8f 8G/L	.	(4b/	.	.	.	.	.	.	.	.	.
.	.	8d\	.	8f 8G/	.	.	.	.	.	.	.	.	.	.	.
.	.	8d\J	.	8f 8G/J	.	8g/)	.	.	.	.	.	.	.	.	.
=13	=13	=13	=13	=13	=13	=13	=13	=13	=13	=13	=13	=13	=13	=13	=13
4F\	.	8f\L	.	8c/L	.	(16a/LL	.	1.r	.	1.r	.	1.r	.	1.r	.
.	.	.	.	.	.	16g#X/	.	.	.	.	.	.	.	.	.
.	.	8f\	.	8c/	.	16a/	.	.	.	.	.	.	.	.	.
.	.	.	.	.	.	16b/	.	.	.	.	.	.	.	.	.
8r	.	8f\J	.	8c/J	.	16cc/	.	.	.	.	.	.	.	.	.
.	.	.	.	.	.	16a/JJ)	.	.	.	.	.	.	.	.	.
=14	=14	=14	=14	=14	=14	=14	=14	=14	=14	=14	=14	=14	=14	=14	=14
4G\	.	8d\L	.	8f/L	.	(16b\LL	.	.	.	.	.	.	.	.	.
.	.	.	.	.	.	16a\	.	.	.	.	.	.	.	.	.
.	.	8d\	.	8f/	.	16b\	.	.	.	.	.	.	.	.	.
.	.	.	.	.	.	16cc\	.	.	.	.	.	.	.	.	.
8r	.	8d\J	.	8f/J	.	16dd\	.	.	.	.	.	.	.	.	.
.	.	.	.	.	.	16b\JJ)	.	.	.	.	.	.	.	.	.
*	*	*Xtremolo	*	*Xtremolo	*	*	*	*	*	*	*	*	*	*	*
=15	=15	=15	=15	=15	=15	=15	=15	=15	=15	=15	=15	=15	=15	=15	=15
4c\	.	4c\	.	(8e/L	.	(8cc\L	.	.	.	.	.	.	.	.	.
.	.	.	.	8g/)	.	8ee\	.	.	.	.	.	.	.	.	.
8G\	.	8B\	.	8f'/J	.	8dd\J)	.	.	.	.	.	.	.	.	.
=16	=16	=16	=16	=16	=16	=16	=16	=16	=16	=16	=16	=16	=16	=16	=16
8c\L	.	4c\	.	4e/	.	4cc\	.	.	.	.	.	.	.	.	.
8G\	.	.	.	.	.	.	.	.	.	.	.	.	.	.	.
8C\J	.	8r	.	8r	.	8r	.	.	.	.	.	.	.	.	.
=17:|!	=17:|!	=17:|!	=17:|!	=17:|!	=17:|!	=17:|!	=17:|!	=17:|!	=17:|!	=17:|!	=17:|!	=17:|!	=17:|!	=17:|!	=17:|!
*>B	*	*>B	*	*>B	*	*>B	*	*>B	*	*>B	*	*>B	*	*>B	*
!	!	!	!	!	!	!	!	!	!	!	!	!LO:TX:t=P:problem:znak repetycji na początku taktu	!	!	!
!	!	!LO:TX:t=P:problem:wykreślony znak repetycji na początku taktu	!	!LO:TX:t=P:problem:znak repetycji na początku taktu	!	!	!	!	!	!	!	!	!	!	!
!	!	!	!	!	!	!	!	!LO:TX:a:t=12	!	!LO:TX:a:t=12	!	!LO:TX:a:t=12.	!	!LO:TX:a:t=12	!
!	!LO:DY:a	!	!	!	!LO:DY:a	!	!	!	!	!	!	!	!	!	!
(4.G\	pp	(4.d\	p	(4.f/	p	(16g\LL	.	1.r	.	1.r	.	1.r	.	1.r	.
.	.	.	.	.	.	16b\	.	.	.	.	.	.	.	.	.
.	.	.	.	.	.	16dd\)	.	.	.	.	.	.	.	.	.
.	.	.	.	.	.	16b'\	.	.	.	.	.	.	.	.	.
.	.	.	.	.	.	16g'\	.	.	.	.	.	.	.	.	.
.	.	.	.	.	.	16b'\JJ	.	.	.	.	.	.	.	.	.
=18	=18	=18	=18	=18	=18	=18	=18	=18	=18	=18	=18	=18	=18	=18	=18
4.G\	.	4.c\	.	4.e/	.	(16cc\LL	.	.	.	.	.	.	.	.	.
.	.	.	.	.	.	16ee\	.	.	.	.	.	.	.	.	.
.	.	.	.	.	.	16gg\)	.	.	.	.	.	.	.	.	.
.	.	.	.	.	.	16ee'\	.	.	.	.	.	.	.	.	.
.	.	.	.	.	.	16cc'\	.	.	.	.	.	.	.	.	.
.	.	.	.	.	.	16ee'\JJ	.	.	.	.	.	.	.	.	.
=19	=19	=19	=19	=19	=19	=19	=19	=19	=19	=19	=19	=19	=19	=19	=19
4.G\)	.	4.d\	.	4.f/)	.	(16g\LL	.	.	.	.	.	.	.	.	.
.	.	.	.	.	.	16b\	.	.	.	.	.	.	.	.	.
.	.	.	.	.	.	16dd\)	.	.	.	.	.	.	.	.	.
.	.	.	.	.	.	16b'\	.	.	.	.	.	.	.	.	.
.	.	.	.	.	.	16g'\	.	.	.	.	.	.	.	.	.
.	.	.	.	.	.	16b'\JJ	.	.	.	.	.	.	.	.	.
=20	=20	=20	=20	=20	=20	=20	=20	=20	=20	=20	=20	=20	=20	=20	=20
8G\L	.	8c\L)	.	8e/L	.	(8cc\L	.	.	.	.	.	.	.	.	.
8G\	.	8c\	.	8e/	.	8ee\	.	.	.	.	.	.	.	.	.
8G\J	.	8c\J	.	8e/J	.	8gg\J)	.	.	.	.	.	.	.	.	.
=21	=21	=21	=21	=21	=21	=21	=21	=21	=21	=21	=21	=21	=21	=21	=21
[4.G\	.	(4.d\	.	(4.f/	.	(16g\LL	.	1.r	.	1.r	.	1.r	.	1.r	.
.	.	.	.	.	.	16b\	.	.	.	.	.	.	.	.	.
.	.	.	.	.	.	16dd\)	.	.	.	.	.	.	.	.	.
.	.	.	.	.	.	16b'\	.	.	.	.	.	.	.	.	.
.	.	.	.	.	.	16g'\	.	.	.	.	.	.	.	.	.
.	.	.	.	.	.	16b'\JJ	.	.	.	.	.	.	.	.	.
=22	=22	=22	=22	=22	=22	=22	=22	=22	=22	=22	=22	=22	=22	=22	=22
4.G\]	.	4.c\)	.	4.e/)	.	(16cc\LL	.	.	.	.	.	.	.	.	.
.	.	.	.	.	.	16ee\	.	.	.	.	.	.	.	.	.
.	.	.	.	.	.	16gg\)	.	.	.	.	.	.	.	.	.
.	.	.	.	.	.	16ee'\	.	.	.	.	.	.	.	.	.
.	.	.	.	.	.	16cc'\	.	.	.	.	.	.	.	.	.
.	.	.	.	.	.	16ee'\JJ	.	.	.	.	.	.	.	.	.
=23	=23	=23	=23	=23	=23	=23	=23	=23	=23	=23	=23	=23	=23	=23	=23
4G\	.	8B/L	.	(4d/	.	(8gg\L	.	.	.	.	.	.	.	.	.
.	.	8G/	.	.	.	8ff#X\)	.	.	.	.	.	.	.	.	.
8D\	.	8F#X/J	.	8c/)	.	8aa'\J	.	.	.	.	.	.	.	.	.
=24	=24	=24	=24	=24	=24	=24	=24	=24	=24	=24	=24	=24	=24	=24	=24
4G\	.	4G/	.	4B/	.	4.gg\	.	.	.	.	.	.	.	.	.
8r	.	8r	.	8r	.	.	.	.	.	.	.	.	.	.	.
=25	=25	=25	=25	=25	=25	=25	=25	=25	=25	=25	=25	=25	=25	=25	=25
4.r	.	4.r	.	4.r	.	(8gg\L	.	1.r	.	1.r	.	1.r	.	1.r	.
.	.	.	.	.	.	8ff#X\)	.	.	.	.	.	.	.	.	.
.	.	.	.	.	.	8aa'\J	.	.	.	.	.	.	.	.	.
=26	=26	=26	=26	=26	=26	=26	=26	=26	=26	=26	=26	=26	=26	=26	=26
4.r	.	4.r	.	4.r	.	(8gg\L	.	.	.	.	.	.	.	.	.
.	.	.	.	.	.	8ff#X\	.	.	.	.	.	.	.	.	.
.	.	.	.	.	.	8aa\J)	.	.	.	.	.	.	.	.	.
=27	=27	=27	=27	=27	=27	=27	=27	=27	=27	=27	=27	=27	=27	=27	=27
4.r	.	4.r	.	4.r	.	(8gg\L	.	.	.	.	.	.	.	.	.
!	!	!	!	!	!	!LO:SIC:v:s=8ff#	!	!	!	!	!	!	!	!	!
.	.	.	.	.	.	8ff\)	.	.	.	.	.	.	.	.	.
.	.	.	.	.	.	8aa'\J	.	.	.	.	.	.	.	.	.
=28	=28	=28	=28	=28	=28	=28	=28	=28	=28	=28	=28	=28	=28	=28	=28
4.r	.	4.r	.	4.r	.	(8gg\L	.	.	.	.	.	.	.	.	.
.	.	.	.	.	.	8ffn\)	.	.	.	.	.	.	.	.	.
.	.	.	.	.	.	8dd'\J	.	.	.	.	.	.	.	.	.
=29	=29	=29	=29	=29	=29	=29	=29	=29	=29	=29	=29	=29	=29	=29	=29
*	*	*tremolo	*	*tremolo	*	*	*	*	*	*	*	*	*	*	*
!	!LO:DY:a	!	!LO:DY:a	!	!LO:DY:a	!	!	!	!LO:DY:a	!	!	!	!	!	!
8C\L	f	8c\L	f	8e 8G/L	f	(4gg\	f	4.e/	f	[4.cc\	f	[4.cc\	f	[4.cc\	f
8E\	.	8c\	.	8e 8G/	.	.	.	.	.	.	.	.	.	.	.
8G\J	.	8c\J	.	8e 8G/J	.	8ee\)	.	.	.	.	.	.	.	.	.
=30	=30	=30	=30	=30	=30	=30	=30	=30	=30	=30	=30	=30	=30	=30	=30
*tremolo	*	*	*	*	*	*	*	*	*	*	*	*	*	*	*
8c\L	.	8c\L	.	8e 8G/L	.	(4cc\	.	4.e/	.	4.cc\]	.	4.cc\]	.	4.cc\]	.
8c\	.	8c\	.	8e 8G/	.	.	.	.	.	.	.	.	.	.	.
8c\J	.	8c\J	.	8e 8G/J	.	8ee\)	.	.	.	.	.	.	.	.	.
*Xtremolo	*	*	*	*	*	*	*	*	*	*	*	*	*	*	*
=31	=31	=31	=31	=31	=31	=31	=31	=31	=31	=31	=31	=31	=31	=31	=31
8GG/L	.	8B/L	.	8f 8G/L	.	(8gg\L	.	4.g/	.	[4.dd\	.	[4.dd\	.	[4.dd\	.
8BB/	.	8B/	.	8f 8G/	.	8ff\)	.	.	.	.	.	.	.	.	.
8D/J	.	8B/J	.	8f 8G/J	.	8dd'\J	.	.	.	.	.	.	.	.	.
=32	=32	=32	=32	=32	=32	=32	=32	=32	=32	=32	=32	=32	=32	=32	=32
*tremolo	*	*	*	*	*	*	*	*	*	*	*	*	*	*	*
8G\L	.	8d\L	.	8f 8G/L	.	(4b/	.	4.g/	.	4.dd\]	.	4.dd\]	.	4.dd\]	.
8G\	.	8d\	.	8f 8G/	.	.	.	.	.	.	.	.	.	.	.
8G\J	.	8d\J	.	8f 8G/J	.	8g/)	.	.	.	.	.	.	.	.	.
=33	=33	=33	=33	=33	=33	=33	=33	=33	=33	=33	=33	=33	=33	=33	=33
8F\L	.	8f\L	.	8c/L	.	(16a/LL	.	4.r	.	4.r	.	8a/	.	8a/	.
.	.	.	.	.	.	16g#X/	.	.	.	.	.	.	.	.	.
8F\	.	8f\	.	8c/	.	16a/	.	.	.	.	.	4cc\	.	4cc\	.
.	.	.	.	.	.	16b/	.	.	.	.	.	.	.	.	.
8F\J	.	8f\J	.	8c/J	.	16cc/	.	.	.	.	.	.	.	.	.
.	.	.	.	.	.	16a/JJ)	.	.	.	.	.	.	.	.	.
=34	=34	=34	=34	=34	=34	=34	=34	=34	=34	=34	=34	=34	=34	=34	=34
8G\L	.	8d\L	.	8f/L	.	(16b\LL	.	4.g/	.	4.dd\	.	4.ff\	.	4.ff\	.
.	.	.	.	.	.	16a\	.	.	.	.	.	.	.	.	.
8G\	.	8d\	.	8f/	.	16b\	.	.	.	.	.	.	.	.	.
.	.	.	.	.	.	16cc\	.	.	.	.	.	.	.	.	.
8G\J	.	8d\J	.	8f/J	.	16dd\	.	.	.	.	.	.	.	.	.
.	.	.	.	.	.	16b\JJ)	.	.	.	.	.	.	.	.	.
*Xtremolo	*	*Xtremolo	*	*Xtremolo	*	*	*	*	*	*	*	*	*	*	*
=35	=35	=35	=35	=35	=35	=35	=35	=35	=35	=35	=35	=35	=35	=35	=35
8C\L	.	8c\L	.	(8e/L	.	(8cc\L	.	4cc\	.	4ee\	.	4ee\	.	4ee\	.
8E\	.	8c\	.	8g/)	.	8ee\	.	.	.	.	.	.	.	.	.
8G\J	.	8B\J	.	8f'/J	.	8dd\J)	.	8g/	.	8dd\	.	8dd\	.	8dd\	.
=36	=36	=36	=36	=36	=36	=36	=36	=36	=36	=36	=36	=36	=36	=36	=36
8c\L	.	8c/L	.	4e/	.	4cc\	.	4e/	.	4cc\	.	8ee\	.	8ee\	.
8G\	.	8G/	.	.	.	.	.	.	.	.	.	8r	.	8r	.
!	!	!	!	!	!	!	!	!	!	!	!	!LO:TX:t=P:problem:znak repetycji na końcu taktu	!	!	!
8C\J	.	8C/J	.	8r	.	8r	.	8r	.	8r	.	8r	.	8r	.
=37!|:	=37!|:	=37!|:	=37!|:	=37!|:	=37!|:	=37!|:	=37!|:	=37!|:	=37!|:	=37!|:	=37!|:	=37!|:	=37!|:	=37!|:	=37!|:
*>C	*	*>C	*	*>C	*	*>C	*	*>C	*	*>C	*	*>C	*	*>C	*
*	*	*tremolo	*	*tremolo	*	*	*	*	*	*	*	*	*	*	*
!	!LO:DY:a	!	!LO:DY:a	!	!LO:DY:a	!	!	!	!	!	!	!	!	!	!
4C/	pp	8c\L	pp	8e/L	p	(8cc\L	p	1.r	.	1.r	.	8ee\L	p	(8ccc\L	p
.	.	8c\	.	8e/	.	8g\)	.	.	.	.	.	8ee\	.	8gg\)	.
8r	.	8c\J	.	8e/J	.	8g'\J	.	.	.	.	.	8ee\J	.	8gg'\J	.
*	*	*	*	*Xtremolo	*	*	*	*	*	*	*	*	*	*	*
=38	=38	=38	=38	=38	=38	=38	=38	=38	=38	=38	=38	=38	=38	=38	=38
4.r	.	8c\L	.	(4e/	.	(4g/	.	.	.	.	.	(4ee\	.	4gg\	.
.	.	8c\	.	.	.	.	.	.	.	.	.	.	.	.	.
.	.	8c\J	.	8d/)	.	8f/)	.	.	.	.	.	8dd\)	.	8ff\	.
=39	=39	=39	=39	=39	=39	=39	=39	=39	=39	=39	=39	=39	=39	=39	=39
4C/	.	8c\L	.	8c/	.	8e/L	.	.	.	.	.	8ee'\L	.	8ee'\L	.
.	.	8c\	.	(16c/LL	.	(16e/L	.	.	.	.	.	(16ee\L	.	(16ee\L	.
.	.	.	.	16B/	.	16d/	.	.	.	.	.	16dd\	.	16dd\	.
8r	.	8c\J	.	16c/	.	16e/	.	.	.	.	.	16ee\	.	16ee\	.
.	.	.	.	16d/JJ)	.	16f/JJ)	.	.	.	.	.	16ff\JJ)	.	16ff\JJ)	.
=40	=40	=40	=40	=40	=40	=40	=40	=40	=40	=40	=40	=40	=40	=40	=40
4.r	.	8c\L	.	4e/	.	4g/	.	.	.	.	.	4ee\	.	4gg\	.
.	.	8c\	.	.	.	.	.	.	.	.	.	.	.	.	.
.	.	8c\J	.	8e/	.	8g/	.	.	.	.	.	8ee\	.	8gg\	.
=41	=41	=41	=41	=41	=41	=41	=41	=41	=41	=41	=41	=41	=41	=41	=41
*	*	*	*	*tremolo	*	*	*	*	*	*	*	*	*	*	*
4C/	.	8c\L	.	8e/L	.	(8cc/L	.	1.r	.	1.r	.	8ee\L	.	(8ccc\L	.
.	.	8c\	.	8e/	.	8g/)	.	.	.	.	.	8ee\	.	8gg\)	.
8r	.	8c\J	.	8e/J	.	8g'/J	.	.	.	.	.	8ee\J	.	8gg'\J	.
*	*	*	*	*Xtremolo	*	*	*	*	*	*	*	*	*	*	*
=42	=42	=42	=42	=42	=42	=42	=42	=42	=42	=42	=42	=42	=42	=42	=42
4.r	.	8c\L	.	4e/	.	4g/	.	.	.	.	.	4ee\	.	4gg\	.
.	.	8c\	.	.	.	.	.	.	.	.	.	.	.	.	.
.	.	8c\J	.	8d/	.	8f/	.	.	.	.	.	8dd\	.	8ff\	.
*	*	*Xtremolo	*	*	*	*	*	*	*	*	*	*	*	*	*
=43	=43	=43	=43	=43	=43	=43	=43	=43	=43	=43	=43	=43	=43	=43	=43
8C\L	.	8c/L	.	8c'/L	.	8e/L	.	.	.	.	.	8cc\L	.	8ee\L	.
8E\	.	8G/	.	(16e/L	.	(16g/L	.	.	.	.	.	(16ee\L	.	(16gg\L	.
.	.	.	.	16d/	.	16f/	.	.	.	.	.	16dd\)	.	16ff\	.
8G\J	.	8F/J	.	16c/	.	16e/	.	.	.	.	.	16cc'\	.	16ee\	.
.	.	.	.	16B/JJ)	.	16d/JJ)	.	.	.	.	.	16g'\JJ	.	16dd\JJ)	.
=44	=44	=44	=44	=44	=44	=44	=44	=44	=44	=44	=44	=44	=44	=44	=44
8c\L	.	4E/	.	4c/	.	4c/	.	.	.	.	.	4e/	.	4cc\	.
8G\	.	.	.	.	.	.	.	.	.	.	.	.	.	.	.
8C\J	.	8r	.	8r	.	8r	.	.	.	.	.	8r	.	8r	.
=45:|!|:	=45:|!|:	=45:|!|:	=45:|!|:	=45:|!|:	=45:|!|:	=45:|!|:	=45:|!|:	=45:|!|:	=45:|!|:	=45:|!|:	=45:|!|:	=45:|!|:	=45:|!|:	=45:|!|:	=45:|!|:
*>D	*	*>D	*	*>D	*	*>D	*	*>D	*	*>D	*	*>D	*	*>D	*
*	*	*tremolo	*	*	*	*	*	*	*	*	*	*	*	*	*
!	!	!	!LO:DY:a	!	!LO:DY:a	!	!LO:DY:a	!	!	!	!	!	!	!	!
4G\	.	8G/L	p	(8B/L	p	(8d/L	p	1.r	.	1.r	.	(8b\L	.	(8dd\L	p
.	.	8G/	.	8c/	.	8e/	.	.	.	.	.	8cc\)	.	8ee\	.
8r	.	8G/J	.	8d/J)	.	8f/J)	.	.	.	.	.	8dd'\J	.	8ff\J)	.
=46	=46	=46	=46	=46	=46	=46	=46	=46	=46	=46	=46	=46	=46	=46	=46
4C/	.	8c\L	.	(8c/L	.	(8e/L	.	.	.	.	.	(8cc\L	.	(8ee\L	.
.	.	8c\	.	8d/	.	8f/	.	.	.	.	.	8dd\)	.	8ff\	.
8r	.	8c\J	.	8e/J)	.	8g/J)	.	.	.	.	.	8ee'\J	.	8gg\J)	.
=47	=47	=47	=47	=47	=47	=47	=47	=47	=47	=47	=47	=47	=47	=47	=47
4G\	.	8G/L	.	(8B/L	.	(8d/L	.	.	.	.	.	(8b\L	.	(8dd\L	.
.	.	8G/	.	8c/	.	8e/	.	.	.	.	.	8cc\)	.	8ee\	.
8r	.	8G/J	.	8d/J)	.	8f/J)	.	.	.	.	.	8dd'\J	.	8ff\J)	.
*	*	*Xtremolo	*	*	*	*	*	*	*	*	*	*	*	*	*
=48	=48	=48	=48	=48	=48	=48	=48	=48	=48	=48	=48	=48	=48	=48	=48
4C/	.	(8G/L	.	(8c/L	.	(8.e/L	.	.	.	.	.	(8cc/L	.	(8.ee\L	.
.	.	8F/	.	8B/	.	.	.	.	.	.	.	8g/)	.	.	.
.	.	.	.	.	.	16d/K	.	.	.	.	.	.	.	16dd\K	.
8r	.	8E/J)	.	8c/J)	.	8c/J)	.	.	.	.	.	8e'/J	.	8cc\J)	.
=49	=49	=49	=49	=49	=49	=49	=49	=49	=49	=49	=49	=49	=49	=49	=49
*	*	*tremolo	*	*	*	*	*	*	*	*	*	*	*	*	*
4G\	.	8G/L	.	(8B/L	.	(8d/L	.	2.r	.	2.r	.	(8b\L	.	(8dd\L	.
.	.	8G/	.	8c/	.	8e/	.	.	.	.	.	8cc\)	.	8ee\	.
8r	.	8G/J	.	8d/J)	.	8f/J)	.	.	.	.	.	8dd'\J	.	8ff\J)	.
=50	=50	=50	=50	=50	=50	=50	=50	=50	=50	=50	=50	=50	=50	=50	=50
4C/	.	8c\L	.	(8c/L	.	(8e/L	.	.	.	.	.	(8cc\L	.	(8ee\L	.
.	.	8c\	.	8d/	.	8f/	.	.	.	.	.	8dd\)	.	8ff\	.
8r	.	8c\J	.	8e/J)	.	8g/J)	.	.	.	.	.	8ee'\J	.	8gg\J)	.
*	*	*Xtremolo	*	*	*	*	*	*	*	*	*	*	*	*	*
=51	=51	=51	=51	=51	=51	=51	=51	=51	=51	=51	=51	=51	=51	=51	=51
8D\	.	(8c/L	.	(8A/L	.	(8f#X/L	.	4.r	.	4.r	.	(8a\L	.	(8ff#X\L	.
4D\	.	8B/	.	8B/	.	8g/	.	.	.	.	.	8b\)	.	8gg\	.
.	.	8A/J)	.	8c/J)	.	8a/J)	.	.	.	.	.	8cc'\J	.	8aa\J)	.
=52	=52	=52	=52	=52	=52	=52	=52	=52	=52	=52	=52	=52	=52	=52	=52
4GG;/	.	4G;/	.	4B;/	.	4g;/	.	4.r;>	.	4.r;>	.	4b;\	.	4gg;\	.
8r	.	8r	.	8r	.	8r	.	.	.	.	.	8r	.	8r	.
=53	=53	=53	=53	=53	=53	=53	=53	=53	=53	=53	=53	=53	=53	=53	=53
*	*	*tremolo	*	*tremolo	*	*	*	*	*	*	*	*	*	*	*
!	!	!	!LO:DY:a	!	!	!	!	!	!	!	!	!	!	!	!
4C/	.	8c\L	p	8e/L	.	(8cc\L	.	1.r	.	1.r	.	8ee\L	.	(8ccc\L	.
.	.	8c\	.	8e/	.	8g\)	.	.	.	.	.	8ee\	.	8gg\)	.
8r	.	8c\J	.	8e/J	.	8g'\J	.	.	.	.	.	8ee\J	.	8gg\J	.
*	*	*	*	*Xtremolo	*	*	*	*	*	*	*	*	*	*	*
=54	=54	=54	=54	=54	=54	=54	=54	=54	=54	=54	=54	=54	=54	=54	=54
4.r	.	8c\L	.	(4e/	.	(4g/	.	.	.	.	.	(4ee\	.	(4gg\	.
.	.	8c\	.	.	.	.	.	.	.	.	.	.	.	.	.
.	.	8c\J	.	8d/)	.	8f/)	.	.	.	.	.	8dd\)	.	8ff\)	.
=55	=55	=55	=55	=55	=55	=55	=55	=55	=55	=55	=55	=55	=55	=55	=55
4C/	.	8c\L	.	8c/L	.	8e/L	.	.	.	.	.	8cc\L	.	8ee'\L	.
.	.	8c\	.	(16c/L	.	(16e/L	.	.	.	.	.	(16cc\L	.	(16ee\L	.
.	.	.	.	16B/	.	16d/	.	.	.	.	.	16b\)	.	16dd\	.
8r	.	8c\J	.	16c/	.	16e/	.	.	.	.	.	16cc'\	.	16ee\	.
.	.	.	.	16d/JJ)	.	16f/JJ)	.	.	.	.	.	16dd'\JJ	.	16ff\JJ)	.
=56	=56	=56	=56	=56	=56	=56	=56	=56	=56	=56	=56	=56	=56	=56	=56
!	!	!LO:TX:t=P:problem:4.d poprawione na 4.c	!	!	!	!	!	!	!	!	!	!	!	!	!
4.r	.	8c\L	.	4e/	.	4g/	.	.	.	.	.	4ee\	.	4gg\	.
.	.	8c\	.	.	.	.	.	.	.	.	.	.	.	.	.
.	.	8c\J	.	8e/	.	8g/	.	.	.	.	.	8ee\	.	8gg\	.
=57	=57	=57	=57	=57	=57	=57	=57	=57	=57	=57	=57	=57	=57	=57	=57
*	*	*	*	*tremolo	*	*	*	*	*	*	*	*	*	*	*
4C/	.	8c\L	.	8e/L	.	(8cc/L	.	1.r	.	1.r	.	8ee\L	.	(8ccc\L	.
.	.	8c\	.	8e/	.	8g/)	.	.	.	.	.	8ee\	.	8gg\)	.
8r	.	8c\J	.	8e/J	.	8g'/J	.	.	.	.	.	8ee\J	.	8gg\J	.
*	*	*	*	*Xtremolo	*	*	*	*	*	*	*	*	*	*	*
=58	=58	=58	=58	=58	=58	=58	=58	=58	=58	=58	=58	=58	=58	=58	=58
4.r	.	8c\L	.	4e/	.	(4g/	.	.	.	.	.	4ee\	.	(4gg\	.
.	.	8c\	.	.	.	.	.	.	.	.	.	.	.	.	.
.	.	8c\J	.	8d/	.	8f/)	.	.	.	.	.	8dd\	.	8ff\)	.
*	*	*Xtremolo	*	*	*	*	*	*	*	*	*	*	*	*	*
=59	=59	=59	=59	=59	=59	=59	=59	=59	=59	=59	=59	=59	=59	=59	=59
8C\L	.	8c/L	.	8c/L	.	8e/L	.	.	.	.	.	8cc\L	.	8ee\L	.
8E\	.	8G/	.	(16e/L	.	(16g/L	.	.	.	.	.	(16ee\L	.	(16gg\L	.
.	.	.	.	16d/	.	16f/	.	.	.	.	.	16dd\)	.	16ff\	.
8G\J	.	8F/J	.	16c/	.	16e/	.	.	.	.	.	16cc'\	.	16ee\	.
.	.	.	.	16B/JJ)	.	16d/JJ)	.	.	.	.	.	16g'\JJ	.	16dd\JJ)	.
=60	=60	=60	=60	=60	=60	=60	=60	=60	=60	=60	=60	=60	=60	=60	=60
8c\L	.	4E/	.	4c/	.	4c/	.	.	.	.	.	4e/	.	4cc\	.
8G\	.	.	.	.	.	.	.	.	.	.	.	.	.	.	.
8C\J	.	8r	.	8r	.	8r	.	.	.	.	.	8r	.	8r	.
=61:|!	=61:|!	=61:|!	=61:|!	=61:|!	=61:|!	=61:|!	=61:|!	=61:|!	=61:|!	=61:|!	=61:|!	=61:|!	=61:|!	=61:|!	=61:|!
*>E	*	*>E	*	*>E	*	*>E	*	*>E	*	*>E	*	*>E	*	*>E	*
!	!LO:DY:a	!	!LO:DY:a	!	!LO:DY:a	!	!	!	!	!	!	!LO:TX:a:t=8	!	!LO:TX:a:t=8	!
4C/	p	8c\L	p	8e/L	p	(4gg\	p	1.r	.	1.r	.	1.r	.	1.r	.
.	.	8c\	.	8e 8G/	.	.	.	.	.	.	.	.	.	.	.
8r	.	8c\J	.	8e/J	.	8ee\)	.	.	.	.	.	.	.	.	.
=62	=62	=62	=62	=62	=62	=62	=62	=62	=62	=62	=62	=62	=62	=62	=62
*	*	*tremolo	*	*tremolo	*	*	*	*	*	*	*	*	*	*	*
4.r	.	8c\L	.	8e 8G/L	.	(4cc\	.	.	.	.	.	.	.	.	.
.	.	8c\	.	8e 8G/	.	.	.	.	.	.	.	.	.	.	.
.	.	8c\J	.	8e 8G/J	.	8ee\)	.	.	.	.	.	.	.	.	.
=63	=63	=63	=63	=63	=63	=63	=63	=63	=63	=63	=63	=63	=63	=63	=63
4G\	.	8B/L	.	8f 8G/L	.	(8gg\L	.	.	.	.	.	.	.	.	.
.	.	8B/	.	8f 8G/	.	8ff\)	.	.	.	.	.	.	.	.	.
8r	.	8B/J	.	8f 8G/J	.	8dd'\J	.	.	.	.	.	.	.	.	.
=64	=64	=64	=64	=64	=64	=64	=64	=64	=64	=64	=64	=64	=64	=64	=64
4.r	.	8d\L	.	8f 8G/L	.	(4b/	.	.	.	.	.	.	.	.	.
.	.	8d\	.	8f 8G/	.	.	.	.	.	.	.	.	.	.	.
.	.	8d\J	.	8f 8G/J	.	8g/)	.	.	.	.	.	.	.	.	.
=65	=65	=65	=65	=65	=65	=65	=65	=65	=65	=65	=65	=65	=65	=65	=65
4c\	.	8c\L	.	8e 8G/L	.	(16cc\LL	.	1.r	.	1.r	.	1.r	.	1.r	.
.	.	.	.	.	.	16b\	.	.	.	.	.	.	.	.	.
.	.	8c\	.	8e 8G/	.	16cc\	.	.	.	.	.	.	.	.	.
.	.	.	.	.	.	16dd\	.	.	.	.	.	.	.	.	.
8r	.	8c\J	.	8e 8G/J	.	16ee\	.	.	.	.	.	.	.	.	.
.	.	.	.	.	.	16dd\JJ)	.	.	.	.	.	.	.	.	.
=66	=66	=66	=66	=66	=66	=66	=66	=66	=66	=66	=66	=66	=66	=66	=66
4A\	.	8A/L	.	8c/L	.	(16ee\LL	.	.	.	.	.	.	.	.	.
.	.	.	.	.	.	16dd\	.	.	.	.	.	.	.	.	.
.	.	8A/	.	8c/	.	16ee\	.	.	.	.	.	.	.	.	.
.	.	.	.	.	.	16ff#X\	.	.	.	.	.	.	.	.	.
8r	.	8A/J	.	8c/J	.	16gg\	.	.	.	.	.	.	.	.	.
.	.	.	.	.	.	16ff#\JJ)	.	.	.	.	.	.	.	.	.
*	*	*Xtremolo	*	*Xtremolo	*	*	*	*	*	*	*	*	*	*	*
=67	=67	=67	=67	=67	=67	=67	=67	=67	=67	=67	=67	=67	=67	=67	=67
4G\	.	4G/	.	(8B/L	.	(8gg\L	.	.	.	.	.	.	.	.	.
.	.	.	.	8A/)	.	8ff#X\)	.	.	.	.	.	.	.	.	.
8D\	.	8F#X/	.	8c'/J	.	8aa'\J	.	.	.	.	.	.	.	.	.
=68	=68	=68	=68	=68	=68	=68	=68	=68	=68	=68	=68	=68	=68	=68	=68
*	*	*tremolo	*	*	*	*	*	*	*	*	*	*	*	*	*
!	!	!	!	!LO:TX:t=P:problem:pominięty fragment	!	!	!	!	!	!	!	!	!	!	!
8G\L	.	8G/L	.	4.ryy	.	4gg\	.	.	.	.	.	.	.	.	.
(16G\L	.	8G/	.	.	.	.	.	.	.	.	.	.	.	.	.
16F\	.	.	.	.	.	.	.	.	.	.	.	.	.	.	.
16E\	.	8G/J	.	.	.	8gg\	.	.	.	.	.	.	.	.	.
16D\JJ)	.	.	.	.	.	.	.	.	.	.	.	.	.	.	.
*	*	*	*	*	*	*	*	*	*	*	*	*	*	*	*
=69	=69	=69	=69	=69	=69	=69	=69	=69	=69	=69	=69	=69	=69	=69	=69
*	*	*	*	*tremolo	*	*	*	*	*	*	*	*	*	*	*
!	!	!	!LO:DY:a	!	!	!	!	!	!	!	!	!	!	!	!
4C/	.	8c\L	f	8e 8G/L	f	(4gg\	f	4.e/	.	4.cc\	.	[4.cc\	f	[4.ee\	f
.	.	8c\	.	8e 8G/	.	.	.	.	.	.	.	.	.	.	.
8r	.	8c\J	.	8e 8G/J	.	8ee\)	.	.	.	.	.	.	.	.	.
=70	=70	=70	=70	=70	=70	=70	=70	=70	=70	=70	=70	=70	=70	=70	=70
4.r	.	8c\L	.	8e 8G/L	.	(4cc\	.	4.e/	.	4.cc\	.	4.cc\]	.	4.ee\]	.
.	.	8c\	.	8e 8G/	.	.	.	.	.	.	.	.	.	.	.
.	.	8c\J	.	8e 8G/J	.	8ee\)	.	.	.	.	.	.	.	.	.
=71	=71	=71	=71	=71	=71	=71	=71	=71	=71	=71	=71	=71	=71	=71	=71
4G\	.	8B/L	.	8f 8G/L	.	(8gg\L	.	4.g/	.	4.dd\	.	[4.dd\	.	[4.ff\	.
.	.	8B/	.	8f 8G/	.	8ff\)	.	.	.	.	.	.	.	.	.
8r	.	8B/J	.	8f 8G/J	.	8dd'\J	.	.	.	.	.	.	.	.	.
=72	=72	=72	=72	=72	=72	=72	=72	=72	=72	=72	=72	=72	=72	=72	=72
4.r	.	8d\L	.	8f 8G/L	.	(4b/	.	4.g/	.	4.dd\	.	4.dd\]	.	4.ff\]	.
.	.	8d\	.	8f 8G/	.	.	.	.	.	.	.	.	.	.	.
.	.	8d\J	.	8f 8G/J	.	8g/)	.	.	.	.	.	.	.	.	.
=73	=73	=73	=73	=73	=73	=73	=73	=73	=73	=73	=73	=73	=73	=73	=73
4F\	.	8f\L	.	8c/L	.	(16a/LL	.	4.r	.	4.r	.	8a/	.	4.aa\	.
.	.	.	.	.	.	16g#X/	.	.	.	.	.	.	.	.	.
.	.	8f\	.	8c/	.	16a/	.	.	.	.	.	4cc\	.	.	.
.	.	.	.	.	.	16b/	.	.	.	.	.	.	.	.	.
8r	.	8f\J	.	8c/J	.	16cc/	.	.	.	.	.	.	.	.	.
.	.	.	.	.	.	16a/JJ)	.	.	.	.	.	.	.	.	.
=74	=74	=74	=74	=74	=74	=74	=74	=74	=74	=74	=74	=74	=74	=74	=74
!	!	!	!	!	!	!	!	!LO:TX:t=P:problem:brak taktu	!	!	!	!	!	!	!
4G\	.	8d\L	.	8f/L	.	(16b\LL	.	4.ryy	.	4.dd\	.	4.ff\	.	4.bb\	.
.	.	.	.	.	.	16a\	.	.	.	.	.	.	.	.	.
.	.	8d\	.	8f/	.	16b\	.	.	.	.	.	.	.	.	.
.	.	.	.	.	.	16cc\	.	.	.	.	.	.	.	.	.
8r	.	8d\J	.	8f/J	.	16dd\	.	.	.	.	.	.	.	.	.
.	.	.	.	.	.	16b\JJ)	.	.	.	.	.	.	.	.	.
*	*	*Xtremolo	*	*Xtremolo	*	*	*	*	*	*	*	*	*	*	*
=75	=75	=75	=75	=75	=75	=75	=75	=75	=75	=75	=75	=75	=75	=75	=75
4c\	.	4c\	.	(8e/L	.	(8cc\L	.	4cc\	.	4ee\	.	4ee\	.	4ccc\	.
.	.	.	.	8g/	.	8ee\	.	.	.	.	.	.	.	.	.
8G\	.	8B\	.	8f/J)	.	8dd\J)	.	8g/	.	8dd\	.	8dd\	.	8bb\	.
=76	=76	=76	=76	=76	=76	=76	=76	=76	=76	=76	=76	=76	=76	=76	=76
8c\L	.	4c\	.	4e/	.	4cc\	.	4e/	.	4cc\	.	4ee\	.	4ccc\	.
8G\	.	.	.	.	.	.	.	.	.	.	.	.	.	.	.
8C\J	.	8r	.	8r	.	8r	.	8r	.	8r	.	8r	.	8r	.
=77	=77	=77	=77	=77	=77	=77	=77	=77	=77	=77	=77	=77	=77	=77	=77
!	!	!	!	!	!LO:DY:a	!	!LO:DY:a	!LO:TX:a:t=12	!	!LO:TX:a:t=12	!	!LO:TX:a:t=12	!	!LO:TX:a:t=12	!
(4.G\	.	(4.d\	pp	(4.f/	p	(16g\LL	p	4.r	.	4.r	.	4.r	.	4.r	.
.	.	.	.	.	.	16b\	.	.	.	.	.	.	.	.	.
.	.	.	.	.	.	16dd\)	.	.	.	.	.	.	.	.	.
.	.	.	.	.	.	16b'\	.	.	.	.	.	.	.	.	.
.	.	.	.	.	.	16g'\	.	.	.	.	.	.	.	.	.
.	.	.	.	.	.	16b'\JJ	.	.	.	.	.	.	.	.	.
=78	=78	=78	=78	=78	=78	=78	=78	=78	=78	=78	=78	=78	=78	=78	=78
4.G\	.	4.c\	.	4.e/	.	(16cc\LL	.	4.r	.	4.r	.	4.r	.	4.r	.
.	.	.	.	.	.	16ee\	.	.	.	.	.	.	.	.	.
.	.	.	.	.	.	16gg\)	.	.	.	.	.	.	.	.	.
.	.	.	.	.	.	16ee 16cc'\	.	.	.	.	.	.	.	.	.
.	.	.	.	.	.	16cc'\	.	.	.	.	.	.	.	.	.
.	.	.	.	.	.	16ee'\JJ	.	.	.	.	.	.	.	.	.
=79	=79	=79	=79	=79	=79	=79	=79	=79	=79	=79	=79	=79	=79	=79	=79
4.G\)	.	4.d\	.	4.f/)	.	(16g\LL	.	4.r	.	4.r	.	4.r	.	4.r	.
.	.	.	.	.	.	16b\	.	.	.	.	.	.	.	.	.
.	.	.	.	.	.	16dd\)	.	.	.	.	.	.	.	.	.
.	.	.	.	.	.	16b'\	.	.	.	.	.	.	.	.	.
.	.	.	.	.	.	16g'\	.	.	.	.	.	.	.	.	.
.	.	.	.	.	.	16b'\JJ	.	.	.	.	.	.	.	.	.
=80	=80	=80	=80	=80	=80	=80	=80	=80	=80	=80	=80	=80	=80	=80	=80
8G\L	.	8c\L)	.	8e/L	.	(8cc\L	.	4.r	.	4.r	.	4.r	.	4.r	.
8G\	.	8c\	.	8e/	.	8ee\)	.	.	.	.	.	.	.	.	.
8G\J	.	8c\J	.	8e/J	.	8gg'\J	.	.	.	.	.	.	.	.	.
=81	=81	=81	=81	=81	=81	=81	=81	=81	=81	=81	=81	=81	=81	=81	=81
[4.G\	.	(4.d\	.	(4.f/	.	(16g\LL	.	4.r	.	4.r	.	4.r	.	4.r	.
.	.	.	.	.	.	16b\	.	.	.	.	.	.	.	.	.
.	.	.	.	.	.	16dd\)	.	.	.	.	.	.	.	.	.
.	.	.	.	.	.	16b'\	.	.	.	.	.	.	.	.	.
.	.	.	.	.	.	16g'\	.	.	.	.	.	.	.	.	.
.	.	.	.	.	.	16b'\JJ	.	.	.	.	.	.	.	.	.
=82	=82	=82	=82	=82	=82	=82	=82	=82	=82	=82	=82	=82	=82	=82	=82
4.G\]	.	4.c\)	.	4.e/)	.	(16cc\LL	.	4.r	.	4.r	.	4.r	.	4.r	.
.	.	.	.	.	.	16ee\	.	.	.	.	.	.	.	.	.
.	.	.	.	.	.	16gg\)	.	.	.	.	.	.	.	.	.
.	.	.	.	.	.	16ee'\	.	.	.	.	.	.	.	.	.
.	.	.	.	.	.	16cc'\	.	.	.	.	.	.	.	.	.
.	.	.	.	.	.	16ee'\JJ	.	.	.	.	.	.	.	.	.
=83	=83	=83	=83	=83	=83	=83	=83	=83	=83	=83	=83	=83	=83	=83	=83
4G\	.	(8B/L	.	(4d/	.	(8gg\L	.	4.r	.	4.r	.	4.r	.	4.r	.
.	.	8G/	.	.	.	8ff#X\)	.	.	.	.	.	.	.	.	.
8D\	.	8F#X/J)	.	8c/)	.	8aa'\J	.	.	.	.	.	.	.	.	.
=84	=84	=84	=84	=84	=84	=84	=84	=84	=84	=84	=84	=84	=84	=84	=84
4G\	.	4G/	.	4B/	.	4.gg^\	.	4.r	.	4.r	.	4.r	.	4.r	.
8r	.	8r	.	8r	.	.	.	.	.	.	.	.	.	.	.
=85	=85	=85	=85	=85	=85	=85	=85	=85	=85	=85	=85	=85	=85	=85	=85
4.r	.	4.r	.	4.r	.	(8gg\L	.	4.r	.	4.r	.	4.r	.	4.r	.
.	.	.	.	.	.	8ff#X\)	.	.	.	.	.	.	.	.	.
.	.	.	.	.	.	8aa'\J	.	.	.	.	.	.	.	.	.
=86	=86	=86	=86	=86	=86	=86	=86	=86	=86	=86	=86	=86	=86	=86	=86
4.r	.	4.r	.	4.r	.	(8gg\L	.	4.r	.	4.r	.	4.r	.	4.r	.
.	.	.	.	.	.	8ff#X\)	.	.	.	.	.	.	.	.	.
.	.	.	.	.	.	8aa'\J	.	.	.	.	.	.	.	.	.
=87	=87	=87	=87	=87	=87	=87	=87	=87	=87	=87	=87	=87	=87	=87	=87
4.r	.	4.r	.	4.r	.	(8gg\L	.	4.r	.	4.r	.	4.r	.	4.r	.
.	.	.	.	.	.	8ff#X\)	.	.	.	.	.	.	.	.	.
.	.	.	.	.	.	8aa'\J	.	.	.	.	.	.	.	.	.
=88	=88	=88	=88	=88	=88	=88	=88	=88	=88	=88	=88	=88	=88	=88	=88
!	!	!	!	!	!	!LO:TX:t=P:problem:brak taktu	!	!	!	!	!	!	!	!	!
4.r	.	4.r	.	4.r	.	4.ryy	.	4.r	.	4.r	.	4.r	.	4.r	.
=89	=89	=89	=89	=89	=89	=89	=89	=89	=89	=89	=89	=89	=89	=89	=89
*	*	*tremolo	*	*tremolo	*	*	*	*	*	*	*	*	*	*	*
!	!LO:DY:a	!	!LO:DY:a	!	!LO:DY:a	!	!	!	!LO:DY:Bi:a:t=%sor.	!	!LO:DY:Bi:b:t=%sor.	!	!	!	!
8C\L	f	8c\L	f	8e 8G/L	f	(4gg\	.	4.e/	f	4.cc\	f	[4.cc\	f	[4.ee\	f
8E\	.	8c\	.	8e 8G/	.	.	.	.	.	.	.	.	.	.	.
8G\J	.	8c\J	.	8e 8G/J	.	8ee\)	.	.	.	.	.	.	.	.	.
=90	=90	=90	=90	=90	=90	=90	=90	=90	=90	=90	=90	=90	=90	=90	=90
8c\L	.	8c\L	.	8e 8G/L	.	(4cc\	.	4.e/	.	4.cc\	.	4.cc\]	.	4.ee\]	.
8c\	.	8c\	.	8e 8G/	.	.	.	.	.	.	.	.	.	.	.
8c\J	.	8c\J	.	8e 8G/J	.	8ee\)	.	.	.	.	.	.	.	.	.
=91	=91	=91	=91	=91	=91	=91	=91	=91	=91	=91	=91	=91	=91	=91	=91
8GG/L	.	8B/L	.	8f 8G/L	.	(8gg\L	.	4.g/	.	4.dd\	.	[4.dd\	.	[4.ff\	.
8BB/	.	8B/	.	8f 8G/	.	8ff\)	.	.	.	.	.	.	.	.	.
8D/J	.	8B/J	.	8f 8G/J	.	8dd'\J	.	.	.	.	.	.	.	.	.
=92	=92	=92	=92	=92	=92	=92	=92	=92	=92	=92	=92	=92	=92	=92	=92
*tremolo	*	*	*	*	*	*	*	*	*	*	*	*	*	*	*
!	!	!	!	!	!	!	!	!	!	!	!	!	!	!LO:N:vis=4	!
8G\L	.	8d\L	.	8f 8G/L	.	(4b/	.	4.g/	.	4.dd\	.	4.dd\]	.	4.ff\]	.
8G\	.	8d\	.	8f 8G/	.	.	.	.	.	.	.	.	.	.	.
8G\J	.	8d\J	.	8f 8G/J	.	8g/)	.	.	.	.	.	.	.	.	.
=93	=93	=93	=93	=93	=93	=93	=93	=93	=93	=93	=93	=93	=93	=93	=93
8F\L	.	8f\L	.	8c/L	.	(16a/LL	.	4.r	.	4.r	.	8a/	.	4.aa\	.
.	.	.	.	.	.	16g#X/	.	.	.	.	.	.	.	.	.
8F\	.	8f\	.	8c/	.	16a/	.	.	.	.	.	4cc\	.	.	.
.	.	.	.	.	.	16b/	.	.	.	.	.	.	.	.	.
8F\J	.	8f\J	.	8c/J	.	16cc/)	.	.	.	.	.	.	.	.	.
.	.	.	.	.	.	16a'/JJ	.	.	.	.	.	.	.	.	.
=94	=94	=94	=94	=94	=94	=94	=94	=94	=94	=94	=94	=94	=94	=94	=94
8G\L	.	8d\L	.	8f/L	.	(16b\LL	.	4.g/	.	4.dd\	.	4.ff\	.	4.bb\	.
.	.	.	.	.	.	16a\	.	.	.	.	.	.	.	.	.
8G\	.	8d\	.	8f/	.	16b\	.	.	.	.	.	.	.	.	.
.	.	.	.	.	.	16cc\	.	.	.	.	.	.	.	.	.
8G\J	.	8d\J	.	8f/J	.	16dd\)	.	.	.	.	.	.	.	.	.
.	.	.	.	.	.	16b'\JJ	.	.	.	.	.	.	.	.	.
*Xtremolo	*	*Xtremolo	*	*Xtremolo	*	*	*	*	*	*	*	*	*	*	*
=95	=95	=95	=95	=95	=95	=95	=95	=95	=95	=95	=95	=95	=95	=95	=95
8C\L	.	8c\L	.	(8e/L	.	(8cc\L	.	4cc\	.	4ee\	.	4ee\	.	4ccc\	.
8E\	.	8c\	.	8g/	.	8ee\)	.	.	.	.	.	.	.	.	.
8G\J	.	8B\J	.	8f/J)	.	8dd'\J	.	8g/	.	8dd\	.	8dd\	.	8bb\	.
=96	=96	=96	=96	=96	=96	=96	=96	=96	=96	=96	=96	=96	=96	=96	=96
8c\L	.	8c/L	.	4e/	.	4cc\	.	4e/	.	4cc\	.	4ee\	.	4ccc\	.
8G\	.	8G/	.	.	.	.	.	.	.	.	.	.	.	.	.
8C\J	.	8C/J	.	8r	.	8r	.	8r	.	8r	.	8r	.	8r	.
=97!|:	=97!|:	=97!|:	=97!|:	=97!|:	=97!|:	=97!|:	=97!|:	=97!|:	=97!|:	=97!|:	=97!|:	=97!|:	=97!|:	=97!|:	=97!|:
*>F	*	*>F	*	*>F	*	*>F	*	*>F	*	*>F	*	*>F	*	*>F	*
*k[b-e-a-]	*	*k[b-e-a-]	*	*k[b-e-a-]	*	*k[b-e-a-]	*	*	*	*	*	*k[b-e-a-]	*	*k[b-e-a-]	*
*E-:	*	*E-:	*	*E-:	*	*E-:	*	*	*	*	*	*E-:	*	*E-:	*
!	!	!	!	!	!	!	!	!	!	!	!	!	!	!LO:TX:t=P:problem:kolejność znaków: ee- a- b-	!
!	!	!	!	!	!	!LO:TX:t=P:problem:kolejność znaków: ee- b- a-	!	!	!	!	!	!	!	!LO:TX:t=P:problem:znaki umieszczone po znaku repetycji:global	!
!	!	!	!	!	!	!LO:TX:a:t=minor	!	!LO:TX:b:t=minor	!	!	!	!LO:TX:b:t=minor	!	!LO:TX:b:t=minor	!
!LO:TX:t=P:problem:kolejność znaków: E- BB- A-, A- zamiast AA-	!	!	!	!LO:TX:b:t=minor	!	!LO:N:vis=4.	!	!LO:TX:a:t=16	!	!LO:TX:a:t=16	!	!LO:TX:a:t=16.	!	!LO:TX:a:t=16	!
4C/	.	8r	.	8r	.	4ee-\	p	4.r	.	4.r	.	4.r	.	4.r	.
!	!	!LO:TX:t=P:problem:kolejność znaków: e- A- B-	!	!	!	!	!	!	!	!	!	!	!	!	!
!	!	!LO:TX:b:t=minor	!LO:DY:a	!	!LO:DY:a	!	!	!	!	!	!	!	!	!	!
.	.	8c\L	p	8g/L	p	.	.	.	.	.	.	.	.	.	.
8r	.	8c\J	.	8g/J	.	(16gg\LL	.	.	.	.	.	.	.	.	.
.	.	.	.	.	.	16ee-\JJ)	.	.	.	.	.	.	.	.	.
=98	=98	=98	=98	=98	=98	=98	=98	=98	=98	=98	=98	=98	=98	=98	=98
4G\	.	8r	.	8r	.	8dd\L	.	4.r	.	4.r	.	4.r	.	4.r	.
.	.	8Bn/L	.	8g/L	.	8dd\	.	.	.	.	.	.	.	.	.
8r	.	8B/J	.	8g/J	.	8dd\J	.	.	.	.	.	.	.	.	.
=99	=99	=99	=99	=99	=99	=99	=99	=99	=99	=99	=99	=99	=99	=99	=99
4c\	.	8r	.	8r	.	4cc\	.	4.r	.	4.r	.	4.r	.	4.r	.
.	.	8e-\L	.	8g/L	.	.	.	.	.	.	.	.	.	.	.
8r	.	8e-\J	.	8g/J	.	(16ee-\LL	.	.	.	.	.	.	.	.	.
.	.	.	.	.	.	16cc\JJ)	.	.	.	.	.	.	.	.	.
=100	=100	=100	=100	=100	=100	=100	=100	=100	=100	=100	=100	=100	=100	=100	=100
4G\	.	8r	.	8r	.	8bn\L	.	4.r	.	4.r	.	4.r	.	4.r	.
.	.	8d\L	.	8g/L	.	8b\	.	.	.	.	.	.	.	.	.
8r	.	8d\J	.	8g/J	.	8b\J	.	.	.	.	.	.	.	.	.
=101	=101	=101	=101	=101	=101	=101	=101	=101	=101	=101	=101	=101	=101	=101	=101
4C/	.	4c\	.	(4e-/	.	8cc'\L	.	4.r	.	4.r	.	4.r	.	4.r	.
.	.	.	.	.	.	(8ee-\	.	.	.	.	.	.	.	.	.
8G\	.	8Bn\	.	8d/)	.	8dd\J)	.	.	.	.	.	.	.	.	.
=102	=102	=102	=102	=102	=102	=102	=102	=102	=102	=102	=102	=102	=102	=102	=102
4c\	.	8d'\L	.	(8f/L	.	(8ff\L	.	4.r	.	4.r	.	4.r	.	4.r	.
.	.	(8c\	.	8e-/	.	8ee-\)	.	.	.	.	.	.	.	.	.
8r	.	8e-\J)	.	8g/J)	.	8gg'\J	.	.	.	.	.	.	.	.	.
=103	=103	=103	=103	=103	=103	=103	=103	=103	=103	=103	=103	=103	=103	=103	=103
!	!	!	!	!LO:SIC:v:s=8d	!	!	!	!	!	!	!	!	!	!	!
4D\	.	8c\L	.	(8e-/L	.	(8ff#X\L	.	4.r	.	4.r	.	4.r	.	4.r	.
!	!	!	!	!	!	!LO:SIC:v:s=8aan	!	!	!	!	!	!	!	!	!
.	.	8An\	.	8c/	.	8aa-\)	.	.	.	.	.	.	.	.	.
8D\	.	8G\J	.	8Bn/J)	.	8gg'\J	.	.	.	.	.	.	.	.	.
=104	=104	=104	=104	=104	=104	=104	=104	=104	=104	=104	=104	=104	=104	=104	=104
!	!	!	!	!LO:SIC:v:s=4Bn	!	!	!	!	!	!	!	!	!	!	!
4G\	.	4G/	.	4B-/	.	4gg\	.	4.r	.	4.r	.	4.r	.	4.r	.
8r	.	8r	.	8r	.	(16ff\LL	.	.	.	.	.	.	.	.	.
.	.	.	.	.	.	16dd\JJ)	.	.	.	.	.	.	.	.	.
=105	=105	=105	=105	=105	=105	=105	=105	=105	=105	=105	=105	=105	=105	=105	=105
4C/	.	8r	.	8r	.	4ee-\	.	4.r	.	4.r	.	4.r	.	4.r	.
.	.	8c\L	.	8g/L	.	.	.	.	.	.	.	.	.	.	.
8r	.	8c\J	.	8g/J	.	(16gg\LL	.	.	.	.	.	.	.	.	.
.	.	.	.	.	.	16ee-\JJ)	.	.	.	.	.	.	.	.	.
=106	=106	=106	=106	=106	=106	=106	=106	=106	=106	=106	=106	=106	=106	=106	=106
4G\	.	8r	.	8r	.	8dd\L	.	4.r	.	4.r	.	4.r	.	4.r	.
.	.	8Bn/L	.	8g/L	.	8dd\	.	.	.	.	.	.	.	.	.
8r	.	8B/J	.	8g/J	.	8dd\J	.	.	.	.	.	.	.	.	.
=107	=107	=107	=107	=107	=107	=107	=107	=107	=107	=107	=107	=107	=107	=107	=107
4c\	.	8r	.	8r	.	4cc\	.	4.r	.	4.r	.	4.r	.	4.r	.
.	.	8e-\L	.	8g/L	.	.	.	.	.	.	.	.	.	.	.
8r	.	8e-\J	.	8g/J	.	(16ee-\LL	.	.	.	.	.	.	.	.	.
.	.	.	.	.	.	16cc\JJ)	.	.	.	.	.	.	.	.	.
=108	=108	=108	=108	=108	=108	=108	=108	=108	=108	=108	=108	=108	=108	=108	=108
4G\	.	8r	.	8r	.	8bn\L	.	4.r	.	4.r	.	4.r	.	4.r	.
.	.	8d\L	.	8g/L	.	8b\	.	.	.	.	.	.	.	.	.
8r	.	8d\J	.	8g/J	.	8b\J	.	.	.	.	.	.	.	.	.
=109	=109	=109	=109	=109	=109	=109	=109	=109	=109	=109	=109	=109	=109	=109	=109
4c\	.	(8e-\L	.	(8g/L	.	8cc\L	.	4.r	.	4.r	.	4.r	.	4.r	.
.	.	8c\	.	8e-/	.	8ee-\	.	.	.	.	.	.	.	.	.
8r	.	8Bn\J)	.	8d/J)	.	8dd\J	.	.	.	.	.	.	.	.	.
=110	=110	=110	=110	=110	=110	=110	=110	=110	=110	=110	=110	=110	=110	=110	=110
.	.	.	.	.	.	8qgg/	.	.	.	.	.	.	.	.	.
4G\	.	(8d\L	.	(8f/L	.	8ff\L	.	4.r	.	4.r	.	4.r	.	4.r	.
.	.	8c\	.	8e-/	.	8ee-\	.	.	.	.	.	.	.	.	.
8r	.	8Bn\J)	.	8d/J)	.	8dd\J	.	.	.	.	.	.	.	.	.
=111	=111	=111	=111	=111	=111	=111	=111	=111	=111	=111	=111	=111	=111	=111	=111
4c\	.	(4c\	.	(8e-/L	.	8cc\L	.	4.r	.	4.r	.	4.r	.	4.r	.
.	.	.	.	8g/	.	8ee-\	.	.	.	.	.	.	.	.	.
8G\	.	8Bn\)	.	8f/J)	.	8dd\J	.	.	.	.	.	.	.	.	.
=112	=112	=112	=112	=112	=112	=112	=112	=112	=112	=112	=112	=112	=112	=112	=112
8c\L	.	4c\	.	4e-/	.	4cc\	.	4.r	.	4.r	.	4.r	.	4.r	.
8G\	.	.	.	.	.	.	.	.	.	.	.	.	.	.	.
8C\J	.	8r	.	8r	.	8r	.	.	.	.	.	.	.	.	.
=113:|!	=113:|!	=113:|!	=113:|!	=113:|!	=113:|!	=113:|!	=113:|!	=113:|!	=113:|!	=113:|!	=113:|!	=113:|!	=113:|!	=113:|!	=113:|!
*>G	*	*>G	*	*>G	*	*>G	*	*>G	*	*>G	*	*>G	*	*>G	*
*	*	*tremolo	*	*tremolo	*	*tremolo	*	*	*	*	*	*	*	*tremolo	*
!	!	!	!LO:DY:a	!	!LO:DY:a	!	!LO:DY:a	!	!	!	!	!	!LO:DY:a	!	!
4GG/	.	8G/L	pp	8Bn/L	pp	8d/L	p	1.r	.	1.r	.	8bn\L	pp	8dd\L	p
.	.	8G/	.	8B/	.	8d/	.	.	.	.	.	8b\	.	8dd\	.
!LO:N:vis=16	!	!	!	!	!	!	!	!	!	!	!	!	!	!	!
8r	.	8G/J	.	8B/J	.	8d/J	.	.	.	.	.	8b\J	.	8dd\J	.
*	*	*	*	*Xtremolo	*	*Xtremolo	*	*	*	*	*	*	*	*Xtremolo	*
=114	=114	=114	=114	=114	=114	=114	=114	=114	=114	=114	=114	=114	=114	=114	=114
4.r	.	8G/L	.	(8.e-/L	.	(8.g/L	.	.	.	.	.	8.ee-\L	.	(8.gg\L	.
.	.	8G/	.	.	.	.	.	.	.	.	.	.	.	.	.
.	.	.	.	16d/K)	.	16f/K	.	.	.	.	.	16dd\K	.	16ff\K	.
.	.	8G/J	.	8c'/J	.	8e-/J)	.	.	.	.	.	8cc\J	.	8ee-\J)	.
=115	=115	=115	=115	=115	=115	=115	=115	=115	=115	=115	=115	=115	=115	=115	=115
4C/	.	8G/L	.	(8c/L	.	8e-'/L	.	.	.	.	.	(8cc\L	.	(8ee-\L	.
.	.	8G/	.	8e-/	.	(8g/	.	.	.	.	.	8ee-\)	.	8gg\	.
8r	.	8G/J	.	8d/J)	.	8f/J)	.	.	.	.	.	8dd'\J	.	8ff\J)	.
=116	=116	=116	=116	=116	=116	=116	=116	=116	=116	=116	=116	=116	=116	=116	=116
4.r	.	8G/L	.	4c/	.	4e-/	.	.	.	.	.	4cc\	.	4ee-\	.
.	.	8G/	.	.	.	.	.	.	.	.	.	.	.	.	.
.	.	8G/J	.	8r	.	8r	.	.	.	.	.	8r	.	8r	.
=117	=117	=117	=117	=117	=117	=117	=117	=117	=117	=117	=117	=117	=117	=117	=117
*	*	*	*	*tremolo	*	*tremolo	*	*	*	*	*	*	*	*tremolo	*
4GG/	.	8G/L	.	8Bn/L	.	8d/L	.	2.r	.	2.r	.	8bn\L	.	8dd\L	.
.	.	8G/	.	8B/	.	8d/	.	.	.	.	.	8b\	.	8dd\	.
8r	.	8G/J	.	8B/J	.	8d/J	.	.	.	.	.	8b\J	.	8dd\J	.
*	*	*	*	*Xtremolo	*	*Xtremolo	*	*	*	*	*	*	*	*Xtremolo	*
=118	=118	=118	=118	=118	=118	=118	=118	=118	=118	=118	=118	=118	=118	=118	=118
4.r	.	8G/L	.	(8.e-/L	.	(8.g/L	.	.	.	.	.	8.ee-\L	.	(8.gg\L	.
.	.	8G/	.	.	.	.	.	.	.	.	.	.	.	.	.
.	.	.	.	16d/K	.	16f/K	.	.	.	.	.	16dd\K	.	16ff\K	.
.	.	8G/J	.	8c/J)	.	8e-/J)	.	.	.	.	.	8cc\J	.	8ee-\J)	.
*	*	*Xtremolo	*	*	*	*	*	*	*	*	*	*	*	*	*
=119	=119	=119	=119	=119	=119	=119	=119	=119	=119	=119	=119	=119	=119	=119	=119
4G\	.	4G/	.	(8Bn/L	.	(8g/L	.	4.r	.	4.r	.	(8bn\L	.	(8gg\L	.
!	!	!	!	!LO:SIC:v:s=8An	!	!	!	!	!	!	!	!LO:SIC:v:s=8an	!	!	!
.	.	.	.	8A-/)	.	8f#X/)	.	.	.	.	.	8a-\)	.	8ff#X\)	.
!	!	!	!	!	!	!LO:SIC:v:s=8an	!	!	!	!	!	!	!	!	!
8D\	.	8d\	.	8c'/J	.	8a-'/J	.	.	.	.	.	8cc'\J	.	8aan'\J	.
=120	=120	=120	=120	=120	=120	=120	=120	=120	=120	=120	=120	=120	=120	=120	=120
4GG;/	.	4G;/	.	4Bn;/	.	4g;/	.	4.r;>	.	4.r;>	.	4bn;\	.	4gg;\	.
8r	.	8r	.	8r	.	8r	.	.	.	.	.	8b\	.	8r	.
=121	=121	=121	=121	=121	=121	=121	=121	=121	=121	=121	=121	=121	=121	=121	=121
!	!	!	!	!	!	!	!	!	!	!	!	!LO:TX:a:t=8.	!	!	!
4C/	.	8r	.	8r	.	4ee-\	.	1.r	.	1.r	.	1.r	.	1.r	.
.	.	8c\L	.	8g/L	.	.	.	.	.	.	.	.	.	.	.
8r	.	8c\J	.	8g/J	.	16gg\LL	.	.	.	.	.	.	.	.	.
.	.	.	.	.	.	16ee-\JJ	.	.	.	.	.	.	.	.	.
=122	=122	=122	=122	=122	=122	=122	=122	=122	=122	=122	=122	=122	=122	=122	=122
*	*	*	*	*	*	*tremolo	*	*	*	*	*	*	*	*	*
4G\	.	8r	.	8r	.	8dd\L	.	.	.	.	.	.	.	.	.
.	.	8Bn/L	.	8g/L	.	8dd\	.	.	.	.	.	.	.	.	.
8r	.	8B/J	.	8g/J	.	8dd\J	.	.	.	.	.	.	.	.	.
*	*	*	*	*	*	*Xtremolo	*	*	*	*	*	*	*	*	*
=123	=123	=123	=123	=123	=123	=123	=123	=123	=123	=123	=123	=123	=123	=123	=123
4c\	.	8r	.	8r	.	4cc\	.	.	.	.	.	.	.	.	.
.	.	8e-\L	.	8g/L	.	.	.	.	.	.	.	.	.	.	.
8r	.	8e-\J	.	8g/J	.	(16ee-\LL	.	.	.	.	.	.	.	.	.
.	.	.	.	.	.	16cc\JJ)	.	.	.	.	.	.	.	.	.
=124	=124	=124	=124	=124	=124	=124	=124	=124	=124	=124	=124	=124	=124	=124	=124
*	*	*	*	*	*	*tremolo	*	*	*	*	*	*	*	*	*
4G\	.	8r	.	8r	.	8bn\L	.	.	.	.	.	.	.	.	.
.	.	8d\L	.	8g/L	.	8bn\	.	.	.	.	.	.	.	.	.
8r	.	8d\J	.	8g/J	.	8bn\J	.	.	.	.	.	.	.	.	.
*	*	*	*	*	*	*Xtremolo	*	*	*	*	*	*	*	*	*
=125	=125	=125	=125	=125	=125	=125	=125	=125	=125	=125	=125	=125	=125	=125	=125
4c\	.	4c\	.	(4e-/	.	8cc\L	.	1.r	.	1.r	.	1.r	.	1.r	.
.	.	.	.	.	.	8ee-\	.	.	.	.	.	.	.	.	.
8r	.	8Bn\	.	8d/)	.	8dd\J	.	.	.	.	.	.	.	.	.
=126	=126	=126	=126	=126	=126	=126	=126	=126	=126	=126	=126	=126	=126	=126	=126
.	.	.	.	.	.	8qgg/	.	.	.	.	.	.	.	.	.
4G\	.	8d\L	.	(8f/L	.	8ff\L	.	.	.	.	.	.	.	.	.
.	.	8c\	.	8e-/)	.	8ee-\	.	.	.	.	.	.	.	.	.
8r	.	8Bn\J	.	8d'/J	.	8dd\J	.	.	.	.	.	.	.	.	.
=127	=127	=127	=127	=127	=127	=127	=127	=127	=127	=127	=127	=127	=127	=127	=127
4c\	.	4c\	.	(8e-/L	.	8cc\L	.	.	.	.	.	.	.	.	.
.	.	.	.	8g/)	.	8ee-\	.	.	.	.	.	.	.	.	.
8G\	.	8Bn\	.	8f'/J	.	8dd\J	.	.	.	.	.	.	.	.	.
=128	=128	=128	=128	=128	=128	=128	=128	=128	=128	=128	=128	=128	=128	=128	=128
!LO:TX:t=P:problem:mixed beam	!	!	!	!	!	!	!	!	!	!	!	!	!	!	!
8c\L	.	4c\	.	4e-/	.	4cc\	.	.	.	.	.	.	.	.	.
8G\	.	.	.	.	.	.	.	.	.	.	.	.	.	.	.
!	!	!	!	!	!	!LO:TX:a:t=Vo Subito	!	!	!	!	!	!	!	!	!
8C\J	.	8r	.	8r	.	8r	.	.	.	.	.	.	.	.	.
=129!|:	=129!|:	=129!|:	=129!|:	=129!|:	=129!|:	=129!|:	=129!|:	=129!|:	=129!|:	=129!|:	=129!|:	=129!|:	=129!|:	=129!|:	=129!|:
*>H	*	*>H	*	*>H	*	*>H	*	*>H	*	*>H	*	*>H	*	*>H	*
*tremolo	*	*tremolo	*	*tremolo	*	*	*	*	*	*	*	*	*	*	*
!	!LO:DY:a	!	!LO:DY:a	!	!LO:DY:a	!	!	!LO:TX:a:t=16	!	!LO:TX:a:t=16	!	!	!	!	!
8E-\L	f	8B-/L	f	8e-L 8G/	f	(4ee-\	f	4.r	.	4.r	.	[4.ee-\	f	4.gg\	f
8E-\	.	8B-/	.	8e- 8G/	.	.	.	.	.	.	.	.	.	.	.
8E-\J	.	8B-/J	.	8e-J 8G/	.	8b-\)	.	.	.	.	.	.	.	.	.
=130	=130	=130	=130	=130	=130	=130	=130	=130	=130	=130	=130	=130	=130	=130	=130
8E-\L	.	8B-/L	.	8e- 8G/L	.	(4g/	.	4.r	.	4.r	.	4.ee-\]	.	4.gg\	.
8E-\	.	8B-/	.	8e- 8G/	.	.	.	.	.	.	.	.	.	.	.
8E-\J	.	8B-/J	.	8e- 8G/J	.	8b-/)	.	.	.	.	.	.	.	.	.
=131	=131	=131	=131	=131	=131	=131	=131	=131	=131	=131	=131	=131	=131	=131	=131
8BB-/L	.	8B-/L	.	8d 8A-/L	.	(4b-/	.	4.r	.	4.r	.	[4.ff\	.	4.aa-\	.
8BB-/	.	8B-/	.	8d 8A-/	.	.	.	.	.	.	.	.	.	.	.
8BB-/J	.	8B-/J	.	8d 8A-/J	.	8a-/)	.	.	.	.	.	.	.	.	.
=132	=132	=132	=132	=132	=132	=132	=132	=132	=132	=132	=132	=132	=132	=132	=132
*	*	*	*	*	*	*tremolo	*	*	*	*	*	*	*	*	*
!	!	!LO:N:vis=4	!	!	!	!	!	!	!	!	!	!	!	!	!
8B-\L	.	8B-/L	.	8d 8A-/L	.	8f/L	.	4.r	.	4.r	.	4.ff\]	.	4.aa-\	.
8B-\	.	8B-/	.	8d 8A-/	.	8f/	.	.	.	.	.	.	.	.	.
8B-\J	.	8B-/J	.	8d 8A-/J	.	8f/J	.	.	.	.	.	.	.	.	.
*	*	*	*	*	*	*Xtremolo	*	*	*	*	*	*	*	*	*
=133	=133	=133	=133	=133	=133	=133	=133	=133	=133	=133	=133	=133	=133	=133	=133
8E-\L	.	8B-/L	.	8e- 8G/L	.	(8e-/L	.	4.r	.	4.r	.	8ee-\L	.	(8gg\L	.
8E-\	.	8B-/	.	8e- 8G/	.	8d/)	.	.	.	.	.	8dd\	.	8ff\	.
8E-\J	.	8B-/J	.	8e- 8G/J	.	8e-'/J	.	.	.	.	.	8ee-\J	.	8gg\J)	.
=134	=134	=134	=134	=134	=134	=134	=134	=134	=134	=134	=134	=134	=134	=134	=134
8BB-/L	.	8B-/L	.	8d 8B-/L	.	(8f/L	.	4.r	.	4.r	.	4.dd\	.	4.aa-\	.
8BB-/	.	8B-/	.	8d 8B-/	.	8g/)	.	.	.	.	.	.	.	.	.
8BB-/J	.	8B-/J	.	8d 8B-/J	.	8f'/J	.	.	.	.	.	.	.	.	.
*Xtremolo	*	*Xtremolo	*	*Xtremolo	*	*	*	*	*	*	*	*	*	*	*
=135	=135	=135	=135	=135	=135	=135	=135	=135	=135	=135	=135	=135	=135	=135	=135
8E-\L	.	8B-/L	.	8e-L 8G/	.	(8a-/L	.	4.r	.	4.r	.	4ee-\	.	4gg\	.
8E-\	.	(8B-/	.	8e-/	.	8g/)	.	.	.	.	.	.	.	.	.
8F\J	.	8An/J)	.	8e-/J	.	8cc'/J	.	.	.	.	.	8ee-\	.	8aan\	.
=136	=136	=136	=136	=136	=136	=136	=136	=136	=136	=136	=136	=136	=136	=136	=136
*	*	*tremolo	*	*tremolo	*	*	*	*	*	*	*	*	*	*	*
8B-\L	.	8B-/L	.	8d/L	.	4b-\	.	4.r	.	4.r	.	4dd\	.	4bb-\	.
8A-\	.	8B-/	.	8d/	.	.	.	.	.	.	.	.	.	.	.
8F\J	.	8B-/J	.	8d/J	.	8b-\	.	.	.	.	.	8r	.	8r	.
=137	=137	=137	=137	=137	=137	=137	=137	=137	=137	=137	=137	=137	=137	=137	=137
*tremolo	*	*	*	*	*	*	*	*	*	*	*	*	*	*	*
8E-\L	.	8B-/L	.	8e- 8G/L	.	(4ee-\	.	4.r	.	4.r	.	[4.ee-\	.	4.gg\	.
8E-\	.	8B-/	.	8e- 8G/	.	.	.	.	.	.	.	.	.	.	.
8E-\J	.	8B-/J	.	8e- 8G/J	.	8b-\)	.	.	.	.	.	.	.	.	.
=138	=138	=138	=138	=138	=138	=138	=138	=138	=138	=138	=138	=138	=138	=138	=138
8E-\L	.	8B-/L	.	8e- 8G/L	.	(4g/	.	4.r	.	4.r	.	4.ee-\]	.	4.gg\	.
8E-\	.	8B-/	.	8e- 8G/	.	.	.	.	.	.	.	.	.	.	.
8E-\J	.	8B-/J	.	8e- 8G/J	.	8b-/)	.	.	.	.	.	.	.	.	.
*Xtremolo	*	*	*	*	*	*	*	*	*	*	*	*	*	*	*
=139	=139	=139	=139	=139	=139	=139	=139	=139	=139	=139	=139	=139	=139	=139	=139
8BB-\L	.	8B-/L	.	8d 8A-/L	.	(4b-/	.	4.r	.	4.r	.	4.ff\	.	4.aa-\	.
8D\	.	8B-/	.	8d 8A-/	.	.	.	.	.	.	.	.	.	.	.
8F\J	.	8B-/J	.	8d 8A-/J	.	8a-/)	.	.	.	.	.	.	.	.	.
=140	=140	=140	=140	=140	=140	=140	=140	=140	=140	=140	=140	=140	=140	=140	=140
*tremolo	*	*	*	*	*	*tremolo	*	*	*	*	*	*	*	*tremolo	*
8B-\L	.	8B-/L	.	8d 8A-/L	.	8f/L	.	4.r	.	4.r	.	8dd\L	.	8ff\L	.
8B-\	.	8B-/	.	8d 8A-/	.	8f/	.	.	.	.	.	8dd\	.	8ff\	.
8B-\J	.	8B-/J	.	8d 8A-/J	.	8f/J	.	.	.	.	.	8dd\J	.	8ff\J	.
*	*	*	*	*Xtremolo	*	*Xtremolo	*	*	*	*	*	*	*	*Xtremolo	*
=141	=141	=141	=141	=141	=141	=141	=141	=141	=141	=141	=141	=141	=141	=141	=141
!	!	!	!	!	!	!	!	!	!	!	!	!LO:TX:t=P:problem:mixed beam	!	!	!
8E-\L	.	8B-/L	.	8G/L	.	8e-/L	.	4.r	.	4.r	.	8g\L	.	(8ee-\L	.
8E-\	.	8B-/	.	(8e-/	.	8g/	.	.	.	.	.	(8ee-\	.	8gg\	.
8E-\J	.	8B-/J	.	8d/J)	.	8f/J	.	.	.	.	.	8dd\J)	.	8ff\J)	.
*Xtremolo	*	*Xtremolo	*	*	*	*	*	*	*	*	*	*	*	*	*
=142	=142	=142	=142	=142	=142	=142	=142	=142	=142	=142	=142	=142	=142	=142	=142
4B-\	.	8d\L	.	(8f/L	.	(8a-/L	.	4.r	.	4.r	.	(8ff\L	.	(8aa-\L	.
.	.	8B-\	.	8d/	.	8d/)	.	.	.	.	.	8b-\)	.	8dd\	.
8BB-/	.	8d\J	.	8A-/J)	.	8f'/J	.	.	.	.	.	8a-'\J	.	8ff\J)	.
=143	=143	=143	=143	=143	=143	=143	=143	=143	=143	=143	=143	=143	=143	=143	=143
*	*	*tremolo	*	*	*	*	*	*	*	*	*	*	*	*	*
8E-\L	.	8B-/L	.	8G/L	.	8e-/L	.	4.r	.	4.r	.	8g'/L	.	8ee-\L	.
8E-\	.	8B-/	.	8G/	.	(8e-/	.	.	.	.	.	(8g/	.	8ee-\	.
.	.	.	.	.	.	8qqg/	.	.	.	.	.	.	.	.	.
8BB-\J	.	8B-/J	.	8A-/J	.	8f/J)	.	.	.	.	.	8a-/J)	.	8ff\J	.
*	*	*Xtremolo	*	*	*	*	*	*	*	*	*	*	*	*	*
=144	=144	=144	=144	=144	=144	=144	=144	=144	=144	=144	=144	=144	=144	=144	=144
4E-\	.	4B-/	.	4G/	.	4e-/	.	4.r	.	4.r	.	4g/	.	4ee-\	.
8r	.	8r	.	8r	.	8r	.	.	.	.	.	8r	.	8r	.
=145:|!|:	=145:|!|:	=145:|!|:	=145:|!|:	=145:|!|:	=145:|!|:	=145:|!|:	=145:|!|:	=145:|!|:	=145:|!|:	=145:|!|:	=145:|!|:	=145:|!|:	=145:|!|:	=145:|!|:	=145:|!|:
*>I	*	*>I	*	*>I	*	*>I	*	*>I	*	*>I	*	*>I	*	*>I	*
*tremolo	*	*tremolo	*	*tremolo	*	*	*	*	*	*	*	*	*	*	*
!	!	!	!LO:DY:a	!	!LO:DY:a	!	!	!LO:TX:a:t=16	!	!LO:TX:a:t=16	!	!	!	!	!
8BB-/L	f	8d\L	f	8A-/L	f	(16B-/LL	.	4.r	.	4.r	.	4.ff\	f	4.aa-\	.
.	.	.	.	.	.	16d/	.	.	.	.	.	.	.	.	.
8BB-/	.	8d\	.	8A-/	.	16f/	.	.	.	.	.	.	.	.	.
.	.	.	.	.	.	16d/	.	.	.	.	.	.	.	.	.
8BB-/J	.	8d\J	.	8A-/J	.	16B-/	.	.	.	.	.	.	.	.	.
.	.	.	.	.	.	16d/JJ)	.	.	.	.	.	.	.	.	.
*Xtremolo	*	*	*	*	*	*	*	*	*	*	*	*	*	*	*
=146	=146	=146	=146	=146	=146	=146	=146	=146	=146	=146	=146	=146	=146	=146	=146
8E-\L	.	8B-/L	.	8G/L	.	(16e-/LL	.	4.r	.	4.r	.	4.ee-\	.	4.gg\	.
.	.	.	.	.	.	16g/	.	.	.	.	.	.	.	.	.
8G\	.	8B-/	.	8G/	.	16b-/	.	.	.	.	.	.	.	.	.
.	.	.	.	.	.	16g/	.	.	.	.	.	.	.	.	.
8E-\J	.	8B-/J	.	8G/J	.	16e-/	.	.	.	.	.	.	.	.	.
.	.	.	.	.	.	16g/JJ)	.	.	.	.	.	.	.	.	.
=147	=147	=147	=147	=147	=147	=147	=147	=147	=147	=147	=147	=147	=147	=147	=147
*tremolo	*	*	*	*	*	*	*	*	*	*	*	*	*	*	*
8BB-/L	.	8d\L	.	8A-/L	.	(16B-/LL	.	4.r	.	4.r	.	4.ff\	.	4.aa-\	.
.	.	.	.	.	.	16d/	.	.	.	.	.	.	.	.	.
8BB-/	.	8d\	.	8A-/	.	16f/	.	.	.	.	.	.	.	.	.
.	.	.	.	.	.	16d/	.	.	.	.	.	.	.	.	.
8BB-/J	.	8d\J	.	8A-/J	.	16B-/	.	.	.	.	.	.	.	.	.
.	.	.	.	.	.	16d/JJ)	.	.	.	.	.	.	.	.	.
=148	=148	=148	=148	=148	=148	=148	=148	=148	=148	=148	=148	=148	=148	=148	=148
8E-\L	.	8B-/L	.	8G/L	.	8e-/L	.	4.r	.	4.r	.	4ee-\	.	4gg\	.
8E-\	.	8B-/	.	8G/	.	8g/	.	.	.	.	.	.	.	.	.
8E-\J	.	8B-/J	.	8G/J	.	8e-/J	.	.	.	.	.	8r	.	8r	.
=149	=149	=149	=149	=149	=149	=149	=149	=149	=149	=149	=149	=149	=149	=149	=149
8BB-/L	.	8d\L	.	8A-/L	.	(16B-/LL	.	4.r	.	4.r	.	4.ff\	.	4.aa-\	.
.	.	.	.	.	.	16d/	.	.	.	.	.	.	.	.	.
8BB-/	.	8d\	.	8A-/	.	16f/	.	.	.	.	.	.	.	.	.
.	.	.	.	.	.	16d/	.	.	.	.	.	.	.	.	.
8BB-/J	.	8d\J	.	8A-/J	.	16B-/	.	.	.	.	.	.	.	.	.
.	.	.	.	.	.	16d/JJ)	.	.	.	.	.	.	.	.	.
=150	=150	=150	=150	=150	=150	=150	=150	=150	=150	=150	=150	=150	=150	=150	=150
8E-\L	.	8B-/L	.	8G/L	.	(16e-/LL	.	4.r	.	4.r	.	4.ee-\	.	4.gg\	.
.	.	.	.	.	.	16g/	.	.	.	.	.	.	.	.	.
8E-\	.	8B-/	.	8G/	.	16b-/	.	.	.	.	.	.	.	.	.
.	.	.	.	.	.	16g/	.	.	.	.	.	.	.	.	.
8E-\J	.	8B-/J	.	8G/J	.	16e-/	.	.	.	.	.	.	.	.	.
.	.	.	.	.	.	16g/JJ)	.	.	.	.	.	.	.	.	.
=151	=151	=151	=151	=151	=151	=151	=151	=151	=151	=151	=151	=151	=151	=151	=151
8F\L	.	8c\L	.	8e- 8c/L	.	(16an\LL	.	4.r	.	4.r	.	4.cc\	.	4.ee-\	.
.	.	.	.	.	.	16cc\	.	.	.	.	.	.	.	.	.
8F\	.	8c\	.	8e- 8c/	.	16ee-\	.	.	.	.	.	.	.	.	.
.	.	.	.	.	.	16cc\	.	.	.	.	.	.	.	.	.
8F\J	.	8c\J	.	8e- 8c/J	.	16a\	.	.	.	.	.	.	.	.	.
.	.	.	.	.	.	16cc\JJ)	.	.	.	.	.	.	.	.	.
*Xtremolo	*	*Xtremolo	*	*Xtremolo	*	*	*	*	*	*	*	*	*	*	*
=152	=152	=152	=152	=152	=152	=152	=152	=152	=152	=152	=152	=152	=152	=152	=152
4BB-/	.	4B-/	.	4d/	.	4b-\	.	4.r	.	4.r	.	4b-\	.	4dd\	.
.	.	.	.	.	.	8qqcc/	.	.	.	.	.	.	.	.	.
8r	.	8r	.	8r	.	8b-\	.	.	.	.	.	8r	.	8r	.
=153	=153	=153	=153	=153	=153	=153	=153	=153	=153	=153	=153	=153	=153	=153	=153
*	*	*tremolo	*	*tremolo	*	*	*	*	*	*	*	*	*	*	*
8E-\L	.	8B-/L	.	8e- 8G/L	.	(4ee-\	.	4.r	.	4.r	.	4g/	.	4ee-\	.
8G\	.	8B-/	.	8e- 8G/	.	.	.	.	.	.	.	.	.	.	.
8B-\J	.	8B-/J	.	8e- 8G/J	.	8b-\)	.	.	.	.	.	8gg\	.	8bb-\	.
=154	=154	=154	=154	=154	=154	=154	=154	=154	=154	=154	=154	=154	=154	=154	=154
8E-\L	.	8B-/L	.	8e- 8G/L	.	(4g/	.	4.r	.	4.r	.	4ee-\	.	4gg\	.
8G\	.	8B-/	.	8e- 8G/	.	.	.	.	.	.	.	.	.	.	.
8B-\J	.	8B-/J	.	8e- 8G/J	.	8b-/)	.	.	.	.	.	8gg\	.	8bb-\	.
=155	=155	=155	=155	=155	=155	=155	=155	=155	=155	=155	=155	=155	=155	=155	=155
8BB-\L	.	8B-/L	.	8d 8A-/L	.	(4b-/	.	4.r	.	4.r	.	4gg\	.	4bb-\	.
8D\	.	8B-/	.	8d 8A-/	.	.	.	.	.	.	.	.	.	.	.
8F\J	.	8B-/J	.	8d 8A-/J	.	8a-/)	.	.	.	.	.	8ff\	.	8aa-\	.
=156	=156	=156	=156	=156	=156	=156	=156	=156	=156	=156	=156	=156	=156	=156	=156
*tremolo	*	*	*	*	*	*tremolo	*	*	*	*	*	*tremolo	*	*tremolo	*
8B-\L	.	8B-/L	.	8d 8A-/L	.	8f/L	.	4.r	.	4.r	.	8dd\L	.	8ff\L	.
8B-\	.	8B-/	.	8d 8A-/	.	8f/	.	.	.	.	.	8dd\	.	8ff\	.
8B-\J	.	8B-/J	.	8d 8A-/J	.	8f/J	.	.	.	.	.	8dd\J	.	8ff\J	.
*	*	*	*	*Xtremolo	*	*Xtremolo	*	*	*	*	*	*Xtremolo	*	*Xtremolo	*
=157	=157	=157	=157	=157	=157	=157	=157	=157	=157	=157	=157	=157	=157	=157	=157
8E-\L	.	8B-/L	.	8G/L	.	(8e-/L	.	4.r	.	4.r	.	8cc\L	.	8ee-\L	.
8E-\	.	8B-/	.	(8e-/	.	8g/)	.	.	.	.	.	(8ee-\	.	8gg\	.
8E-\J	.	8B-/J	.	8d/J)	.	8f'/J	.	.	.	.	.	8dd\J)	.	8ff\J	.
*Xtremolo	*	*	*	*	*	*	*	*	*	*	*	*	*	*	*
=158	=158	=158	=158	=158	=158	=158	=158	=158	=158	=158	=158	=158	=158	=158	=158
!LO:TX:t=P:problem:mixed beam	!	!	!	!	!	!	!	!	!	!	!	!	!	!	!
8B-\L	.	8B-/L	.	(8f/L	.	8a-'/L	.	4.r	.	4.r	.	(8ff\L	.	(8aa-\L	.
8B-\	.	8B-/	.	8d/)	.	(8d/	.	.	.	.	.	8b-\)	.	8dd\	.
8BB-/J	.	8B-/J	.	8A-'/J	.	8f/J)	.	.	.	.	.	8a-'\J	.	8ff\J)	.
=159	=159	=159	=159	=159	=159	=159	=159	=159	=159	=159	=159	=159	=159	=159	=159
!LO:TX:t=P:problem:mixed beam	!	!	!	!	!	!	!	!	!	!	!	!	!	!	!
8E-\L	.	8B-/L	.	8G/L	.	8e-/L	.	4.r	.	4.r	.	8g/L	.	8ee-\L	.
8E-\	.	8B-/	.	(8G/	.	(8e-/	.	.	.	.	.	8g/	.	8ee-\	.
.	.	.	.	.	.	8qg/	.	.	.	.	.	.	.	.	.
8BB-/J	.	8B-/J	.	8A-/J)	.	8f/J)	.	.	.	.	.	8a-/J	.	8ff\J	.
=160	=160	=160	=160	=160	=160	=160	=160	=160	=160	=160	=160	=160	=160	=160	=160
!LO:TX:t=P:problem:niepotrzebnie powtórzony takt w Vla	!	!LO:TX:t=P:problem:niepotrzebnie powtórzony takt	!	!LO:TX:t=P:problem:niepotrzebnie powtórzony takt w Vla	!	!LO:TX:t=P:problem:niepotrzebnie powtórzony takt w Vla	!	!LO:TX:t=P:problem:niepotrzebnie powtórzony takt w Vla	!	!LO:TX:t=P:problem:niepotrzebnie powtórzony takt w Vla	!	!LO:TX:t=P:problem:niepotrzebnie powtórzony takt w Vla	!	!LO:TX:t=P:problem:niepotrzebnie powtórzony takt w Vla	!
4.ryy	.	8B-/L	.	4.ryy	.	4.ryy	.	4.ryy	.	4.ryy	.	4.ryy	.	4.ryy	.
.	.	8B-/	.	.	.	.	.	.	.	.	.	.	.	.	.
.	.	8B-/J	.	.	.	.	.	.	.	.	.	.	.	.	.
*	*	*Xtremolo	*	*	*	*	*	*	*	*	*	*	*	*	*
=161	=161	=161	=161	=161	=161	=161	=161	=161	=161	=161	=161	=161	=161	=161	=161
4E-\	.	4B-/	.	4G/	.	4e-/	.	4.r	.	4.r	.	4g/	.	4ee-\	.
8r	.	8r	.	8r	.	8r	.	.	.	.	.	8r	.	8r	.
=162:|!	=162:|!	=162:|!	=162:|!	=162:|!	=162:|!	=162:|!	=162:|!	=162:|!	=162:|!	=162:|!	=162:|!	=162:|!	=162:|!	=162:|!	=162:|!
*>J	*	*>J	*	*>J	*	*>J	*	*>J	*	*>J	*	*>J	*	*>J	*
*	*	*tremolo	*	*	*	*	*	*	*	*	*	*	*	*	*
!	!	!	!LO:DY:a	!	!	!	!	!LO:TX:a:t=44.	!	!LO:TX:a:t=44	!	!LO:TX:a:t=44.	!	!LO:TX:a:t=44.	!
8e-\L	fp	8B-/L	pp	8g/L	p	8ee-\L	p	4.r	.	4.r	.	4.r	.	4.r	.
(8e-\	.	8B-/	.	(8g/	.	8ee-\	.	.	.	.	.	.	.	.	.
.	.	.	.	8qqb-/	.	8qgg/	.	.	.	.	.	.	.	.	.
8d\J)	.	8B-/J	.	8a-/J)	.	8ff\J	.	.	.	.	.	.	.	.	.
*	*	*Xtremolo	*	*	*	*	*	*	*	*	*	*	*	*	*
=163	=163	=163	=163	=163	=163	=163	=163	=163	=163	=163	=163	=163	=163	=163	=163
4e-\	.	4B-/	.	4g/	.	4ee-\	.	4.r	.	4.r	.	4.r	.	4.r	.
8r	.	8r	.	8r	.	8r	.	.	.	.	.	.	.	.	.
=164	=164	=164	=164	=164	=164	=164	=164	=164	=164	=164	=164	=164	=164	=164	=164
*tremolo	*	*tremolo	*	*tremolo	*	*tremolo	*	*	*	*	*	*	*	*	*
8c\L	.	8g\L	.	8b-\L	.	8een\L	.	4.r	.	4.r	.	4.r	.	4.r	.
8c\	.	8g\	.	8b-\	.	8ee\	.	.	.	.	.	.	.	.	.
8c\J	.	8g\J	.	8b-\J	.	8ee\J	.	.	.	.	.	.	.	.	.
*Xtremolo	*	*Xtremolo	*	*Xtremolo	*	*Xtremolo	*	*	*	*	*	*	*	*	*
=165	=165	=165	=165	=165	=165	=165	=165	=165	=165	=165	=165	=165	=165	=165	=165
!	!	!	!	!	!	!LO:SIC:v:s=8een	!	!	!	!	!	!	!	!	!
4c\	.	4g\	.	4b-\	.	(8ee-\L	.	4.r	.	4.r	.	4.r	.	4.r	.
.	.	.	.	.	.	8gg\)	.	.	.	.	.	.	.	.	.
8r	.	8r	.	8r	.	8bb-'\J	.	.	.	.	.	.	.	.	.
=166	=166	=166	=166	=166	=166	=166	=166	=166	=166	=166	=166	=166	=166	=166	=166
!	!	!	!	!	!	!LO:SIC:v:s=8een	!	!	!	!	!	!	!	!	!
4c\	.	4g\	.	4b-\	.	(8ee-\L	.	4.r	.	4.r	.	4.r	.	4.r	.
.	.	.	.	.	.	8bb-\)	.	.	.	.	.	.	.	.	.
8r	.	8r	.	8r	.	8gg'\J	.	.	.	.	.	.	.	.	.
=167	=167	=167	=167	=167	=167	=167	=167	=167	=167	=167	=167	=167	=167	=167	=167
!	!	!	!	!	!	!LO:SIC:v:s=8een	!	!	!	!	!	!	!	!	!
4c\	.	4.g\	.	4b-\	.	(8ee-\L	.	4.r	.	4.r	.	4.r	.	4.r	.
.	.	.	.	.	.	8cc\)	.	.	.	.	.	.	.	.	.
!	!	!	!	!	!	!LO:SIC:v:s=8een	!	!	!	!	!	!	!	!	!
8r	.	.	.	8r	.	8ee-'\J	.	.	.	.	.	.	.	.	.
=168	=168	=168	=168	=168	=168	=168	=168	=168	=168	=168	=168	=168	=168	=168	=168
*tremolo	*	*	*	*	*	*tremolo	*	*	*	*	*	*	*	*	*
8F\L	.	(8f\L	.	8a-\L	.	8ff\L	.	4.r	.	4.r	.	4.r	.	4.r	.
8F\	.	8a-\)	.	8cc\	.	8ff\	.	.	.	.	.	.	.	.	.
8F\J	.	8a-'\J	.	8cc\J	.	8ff\J	.	.	.	.	.	.	.	.	.
*Xtremolo	*	*	*	*	*	*Xtremolo	*	*	*	*	*	*	*	*	*
=169	=169	=169	=169	=169	=169	=169	=169	=169	=169	=169	=169	=169	=169	=169	=169
4F\	.	4a-\	.	4cc\	.	(8ff\L	.	4.r	.	4.r	.	4.r	.	4.r	.
.	.	.	.	.	.	8aa-\	.	.	.	.	.	.	.	.	.
8r	.	8r	.	8r	.	8ccc\J)	.	.	.	.	.	.	.	.	.
=170	=170	=170	=170	=170	=170	=170	=170	=170	=170	=170	=170	=170	=170	=170	=170
4d\	.	4an\	.	4cc\	.	(8ff#X\L	.	4.r	.	4.r	.	4.r	.	4.r	.
.	.	.	.	.	.	8aan\	.	.	.	.	.	.	.	.	.
8r	.	8r	.	8r	.	8ccc\J)	.	.	.	.	.	.	.	.	.
=171	=171	=171	=171	=171	=171	=171	=171	=171	=171	=171	=171	=171	=171	=171	=171
!	!	!LO:SIC:v:s=4an	!	!	!	!LO:TX:t=P:problem:pominięty fragment	!	!	!	!	!	!	!	!	!
4d\	.	4a-\	.	4cc\	.	4.ryy	.	4.r	.	4.r	.	4.r	.	4.r	.
8r	.	8r	.	8r	.	.	.	.	.	.	.	.	.	.	.
=172	=172	=172	=172	=172	=172	=172	=172	=172	=172	=172	=172	=172	=172	=172	=172
4G\	.	(4g\	.	(4bn/	.	(8gg\L	.	4.r	.	4.r	.	4.r	.	4.r	.
.	.	.	.	.	.	8dd\	.	.	.	.	.	.	.	.	.
!	!	!	!	!	!	!LO:SIC:v:s=8ffn	!	!	!	!	!	!	!	!	!
8r	.	8Bn\)	.	8d/)	.	8ff#X\J)	.	.	.	.	.	.	.	.	.
=173	=173	=173	=173	=173	=173	=173	=173	=173	=173	=173	=173	=173	=173	=173	=173
4G\	.	(8c\L	.	(8g/L	.	(8ee-\L	.	4.r	.	4.r	.	4.r	.	4.r	.
.	.	8G\)	.	8d/	.	8bn\	.	.	.	.	.	.	.	.	.
8r	.	8Bn'\J	.	8f/J)	.	8dd\J)	.	.	.	.	.	.	.	.	.
=174	=174	=174	=174	=174	=174	=174	=174	=174	=174	=174	=174	=174	=174	=174	=174
[4.G\	.	[4.c\	.	4.e-/	.	(4cc\	.	4.r	.	4.r	.	4.r	.	4.r	.
.	.	.	.	.	.	8a-X/)	.	.	.	.	.	.	.	.	.
=175	=175	=175	=175	=175	=175	=175	=175	=175	=175	=175	=175	=175	=175	=175	=175
!	!	!	!	!LO:TX:t=P:problem:pominięty fragment	!	!	!	!	!	!	!	!	!	!	!
4.G\]	.	4.c\]	.	4.ryy	.	(4g/	.	4.r	.	4.r	.	4.r	.	4.r	.
.	.	.	.	.	.	8f#X/)	.	.	.	.	.	.	.	.	.
=176	=176	=176	=176	=176	=176	=176	=176	=176	=176	=176	=176	=176	=176	=176	=176
4G\	.	4Bn/	.	4d/	.	(8an/L	.	4.r	.	4.r	.	4.r	.	4.r	.
!	!	!	!	!	!	!LO:TX:t=P:problem:8a poprawione na 8g	!	!	!	!	!	!	!	!	!
.	.	.	.	.	.	8g/)	.	.	.	.	.	.	.	.	.
!	!	!	!	!	!	!LO:TX:t=P:problem:8a poprawione na 8g	!	!	!	!	!	!	!	!	!
8r	.	8r	.	8r	.	8g'/J	.	.	.	.	.	.	.	.	.
=177	=177	=177	=177	=177	=177	=177	=177	=177	=177	=177	=177	=177	=177	=177	=177
4.r	.	4.r	.	4.r	.	8g/L	.	4.r	.	4.r	.	4.r	.	4.r	.
.	.	.	.	.	.	8g/	.	.	.	.	.	.	.	.	.
.	.	.	.	.	.	8g/J	.	.	.	.	.	.	.	.	.
=178	=178	=178	=178	=178	=178	=178	=178	=178	=178	=178	=178	=178	=178	=178	=178
!	!LO:DY:a	!	!	!	!	!	!	!	!	!	!	!	!	!	!
4C/	p	8r	.	8r	.	4ee-\	p	4.r	.	4.r	.	4.r	.	4.r	.
!	!	!	!LO:DY:a	!	!LO:DY:a	!	!	!	!	!	!	!	!	!	!
.	.	8c\L	p	8g/L	p	.	.	.	.	.	.	.	.	.	.
8r	.	8c\J	.	8g/J	.	(16gg\LL	.	.	.	.	.	.	.	.	.
.	.	.	.	.	.	16ee-\JJ)	.	.	.	.	.	.	.	.	.
=179	=179	=179	=179	=179	=179	=179	=179	=179	=179	=179	=179	=179	=179	=179	=179
8G\	.	8r	.	8r	.	8dd\L	.	4.r	.	4.r	.	4.r	.	4.r	.
8r	.	8Bn/L	.	8g/L	.	8dd\	.	.	.	.	.	.	.	.	.
8r	.	8B/J	.	8g/J	.	8dd\J	.	.	.	.	.	.	.	.	.
=180	=180	=180	=180	=180	=180	=180	=180	=180	=180	=180	=180	=180	=180	=180	=180
4c\	.	8r	.	8r	.	4cc\	.	4.r	.	4.r	.	4.r	.	4.r	.
.	.	8e-\L	.	8g/L	.	.	.	.	.	.	.	.	.	.	.
8r	.	8e-\J	.	8g/J	.	(16ee-\LL	.	.	.	.	.	.	.	.	.
.	.	.	.	.	.	16cc\JJ)	.	.	.	.	.	.	.	.	.
=181	=181	=181	=181	=181	=181	=181	=181	=181	=181	=181	=181	=181	=181	=181	=181
4G\	.	8r	.	8r	.	8bn\L	.	4.r	.	4.r	.	4.r	.	4.r	.
.	.	8d\L	.	8g/L	.	8b\	.	.	.	.	.	.	.	.	.
8r	.	8d\J	.	8g/J	.	8b\J	.	.	.	.	.	.	.	.	.
=182	=182	=182	=182	=182	=182	=182	=182	=182	=182	=182	=182	=182	=182	=182	=182
4C/	.	4c/	.	4e-/	.	(8cc\L	.	4.r	.	4.r	.	4.r	.	4.r	.
.	.	.	.	.	.	8ee-\	.	.	.	.	.	.	.	.	.
8G\	.	8Bn/	.	8d/	.	8dd\J)	.	.	.	.	.	.	.	.	.
=183	=183	=183	=183	=183	=183	=183	=183	=183	=183	=183	=183	=183	=183	=183	=183
4c\	.	8d'\L	.	(8f/L	.	(8ff\L	.	4.r	.	4.r	.	4.r	.	4.r	.
.	.	(8c\	.	8e-/	.	8ee-\)	.	.	.	.	.	.	.	.	.
8r	.	8e-\J)	.	8g/J)	.	8gg'\J	.	.	.	.	.	.	.	.	.
=184	=184	=184	=184	=184	=184	=184	=184	=184	=184	=184	=184	=184	=184	=184	=184
!	!	!	!	!LO:SIC:v:s=8d	!	!	!	!	!	!	!	!	!	!	!
4D\	.	(8c/L	.	(8e-/L	.	(8ff#X\L	.	4.r	.	4.r	.	4.r	.	4.r	.
!	!	!	!	!	!	!LO:SIC:v:s=8aan	!	!	!	!	!	!	!	!	!
.	.	8An/	.	8c/	.	8aa-\)	.	.	.	.	.	.	.	.	.
8D\	.	8G/J)	.	8Bn/J)	.	8gg'\J	.	.	.	.	.	.	.	.	.
=185	=185	=185	=185	=185	=185	=185	=185	=185	=185	=185	=185	=185	=185	=185	=185
!	!	!	!	!LO:SIC:v:s=8Bn	!	!	!	!	!	!	!	!	!	!	!
4G\	.	4G/	.	4B-/	.	4gg\	.	4.r	.	4.r	.	4.r	.	4.r	.
8r	.	8r	.	8r	.	(16ff\LL	.	.	.	.	.	.	.	.	.
.	.	.	.	.	.	16dd\JJ)	.	.	.	.	.	.	.	.	.
=186	=186	=186	=186	=186	=186	=186	=186	=186	=186	=186	=186	=186	=186	=186	=186
4C/	.	8r	.	8r	.	4ee-\	.	4.r	.	4.r	.	4.r	.	4.r	.
.	.	8c\L	.	8g/L	.	.	.	.	.	.	.	.	.	.	.
8r	.	8c\J	.	8g/J	.	(16gg\LL	.	.	.	.	.	.	.	.	.
.	.	.	.	.	.	16ee-\JJ)	.	.	.	.	.	.	.	.	.
=187	=187	=187	=187	=187	=187	=187	=187	=187	=187	=187	=187	=187	=187	=187	=187
4G\	.	8r	.	8r	.	8dd\L	.	4.r	.	4.r	.	4.r	.	4.r	.
.	.	8Bn/L	.	8g/L	.	8dd\	.	.	.	.	.	.	.	.	.
8r	.	8B/J	.	8g/J	.	8dd\J	.	.	.	.	.	.	.	.	.
=188	=188	=188	=188	=188	=188	=188	=188	=188	=188	=188	=188	=188	=188	=188	=188
4c\	.	8r	.	8r	.	4cc\	.	4.r	.	4.r	.	4.r	.	4.r	.
.	.	8e-\L	.	8g/L	.	.	.	.	.	.	.	.	.	.	.
8r	.	8e-\J	.	8g/J	.	(16ee-\LL	.	.	.	.	.	.	.	.	.
.	.	.	.	.	.	16cc\JJ)	.	.	.	.	.	.	.	.	.
=189	=189	=189	=189	=189	=189	=189	=189	=189	=189	=189	=189	=189	=189	=189	=189
4G\	.	8r	.	8r	.	8bn\L	.	4.r	.	4.r	.	4.r	.	4.r	.
.	.	8d\L	.	8g/L	.	8b\	.	.	.	.	.	.	.	.	.
8r	.	8d\J	.	8g/J	.	8b\J	.	.	.	.	.	.	.	.	.
=190	=190	=190	=190	=190	=190	=190	=190	=190	=190	=190	=190	=190	=190	=190	=190
4c\	.	(8e-\L	.	(8g/L	.	(8cc\L	.	4.r	.	4.r	.	4.r	.	4.r	.
.	.	8c\	.	8e-/	.	8ee-\)	.	.	.	.	.	.	.	.	.
8r	.	8Bn\J)	.	8d/J)	.	8dd'\J	.	.	.	.	.	.	.	.	.
=191	=191	=191	=191	=191	=191	=191	=191	=191	=191	=191	=191	=191	=191	=191	=191
.	.	.	.	.	.	8qgg/	.	.	.	.	.	.	.	.	.
4G\	.	(8d\L	.	(8f/L	.	(8ff\L	.	4.r	.	4.r	.	4.r	.	4.r	.
.	.	8c\	.	8e-/	.	8ee-\)	.	.	.	.	.	.	.	.	.
8r	.	8Bn\J)	.	8d/J)	.	8dd'\J	.	.	.	.	.	.	.	.	.
=192	=192	=192	=192	=192	=192	=192	=192	=192	=192	=192	=192	=192	=192	=192	=192
4c\	.	(4c\	.	(8e-/L	.	(8cc\L	.	4.r	.	4.r	.	4.r	.	4.r	.
.	.	.	.	8g/	.	8ee-\)	.	.	.	.	.	.	.	.	.
8G\	.	8Bn\)	.	8f/J)	.	8dd'\J	.	.	.	.	.	.	.	.	.
=193	=193	=193	=193	=193	=193	=193	=193	=193	=193	=193	=193	=193	=193	=193	=193
8c\L	.	4c\	.	4e-/	.	4cc\	.	4.r	.	4.r	.	4.r	.	4.r	.
8G\	.	.	.	.	.	.	.	.	.	.	.	.	.	.	.
8C\J	.	8r	.	8r	.	8r	.	.	.	.	.	.	.	.	.
=194	=194	=194	=194	=194	=194	=194	=194	=194	=194	=194	=194	=194	=194	=194	=194
*	*	*tremolo	*	*	*	*	*	*	*	*	*	*	*	*	*
!LO:TX:t=P:problem:podwójna kreska taktowa	!	!	!	!	!	!	!	!	!	!	!	!	!	!	!
!LO:TX:a:t=6	!	!	!	!	!	!	!	!	!	!	!	!	!	!	!
4.r	.	8g\L	pp	(8bn\L	.	(8dd\L	pp	4.r	.	4.r	.	4.r	.	4.r	.
.	.	8g\	.	8dd\	.	8ff\)	.	.	.	.	.	.	.	.	.
.	.	8g\J	.	8cc\J)	.	8ee-'\J	.	.	.	.	.	.	.	.	.
=195||	=195||	=195	=195	=195	=195	=195	=195	=195	=195	=195	=195	=195	=195	=195	=195
4.r	.	8g\L	.	4bn\	.	4dd\	.	4.r	.	4.r	.	4.r	.	4.r	.
.	.	8g\	.	.	.	.	.	.	.	.	.	.	.	.	.
.	.	8g\J	.	8r	.	8r	.	.	.	.	.	.	.	.	.
=196	=196	=196	=196	=196	=196	=196	=196	=196	=196	=196	=196	=196	=196	=196	=196
4.r	.	8g\L	.	(8cc\L	.	(8ee-\L	.	4.r	.	4.r	.	4.r	.	4.r	.
.	.	8g\	.	8bn\	.	8dd\	.	.	.	.	.	.	.	.	.
.	.	8g\J	.	8a-\J)	.	8cc\J)	.	.	.	.	.	.	.	.	.
=197	=197	=197	=197	=197	=197	=197	=197	=197	=197	=197	=197	=197	=197	=197	=197
4.r	.	8g\L	.	4g/	.	4bn\	.	4.r	.	4.r	.	4.r	.	4.r	.
.	.	8g\	.	.	.	.	.	.	.	.	.	.	.	.	.
.	.	8g\J	.	8r	.	8r	.	.	.	.	.	.	.	.	.
=198	=198	=198	=198	=198	=198	=198	=198	=198	=198	=198	=198	=198	=198	=198	=198
4.r	.	8g\L	.	(8bn\L	.	(8dd\L	.	4.r	.	4.r	.	4.r	.	4.r	.
.	.	8g\	.	8dd\	.	8ff\	.	.	.	.	.	.	.	.	.
.	.	8g\J	.	8cc\J)	.	8ee-\J)	.	.	.	.	.	.	.	.	.
=199	=199	=199	=199	=199	=199	=199	=199	=199	=199	=199	=199	=199	=199	=199	=199
4.r	.	8g\L	.	4bn\	.	4dd\	.	4.r	.	4.r	.	4.r	.	4.r	.
.	.	8g\	.	.	.	.	.	.	.	.	.	.	.	.	.
.	.	8g\J	.	8r	.	8r	.	.	.	.	.	.	.	.	.
*	*	*Xtremolo	*	*	*	*	*	*	*	*	*	*	*	*	*
=200	=200	=200	=200	=200	=200	=200	=200	=200	=200	=200	=200	=200	=200	=200	=200
4.d\	.	4.an\	.	4.cc\	.	(8ff#X\L	.	4.r	.	4.r	.	4.r	.	4.r	.
.	.	.	.	.	.	8aa-\	.	.	.	.	.	.	.	.	.
.	.	.	.	.	.	8ff#\J)	.	.	.	.	.	.	.	.	.
=201	=201	=201	=201	=201	=201	=201	=201	=201	=201	=201	=201	=201	=201	=201	=201
4G\	.	4g\	.	4bn\	.	4.gg^\	.	4.r	.	4.r	.	4.r	.	4.r	.
8r	.	8r	.	8r	.	.	.	.	.	.	.	.	.	.	.
=202	=202	=202	=202	=202	=202	=202	=202	=202	=202	=202	=202	=202	=202	=202	=202
4GG/	.	(8Bn/L	.	(8d/L	.	(4gg^\	.	4.r	.	4.r	.	4.r	.	4.r	.
.	.	8d/)	.	8f/)	.	.	.	.	.	.	.	.	.	.	.
8r	.	8c'/J	.	8e-'/J	.	8ff#X\)	.	.	.	.	.	.	.	.	.
=203	=203	=203	=203	=203	=203	=203	=203	=203	=203	=203	=203	=203	=203	=203	=203
!	!	!LO:SIC:v:s=8Bn	!	!	!	!	!	!	!	!	!	!	!	!	!
4GG/	.	(8B-/L	.	(8d/L	.	(4gg^\	.	4.r	.	4.r	.	4.r	.	4.r	.
.	.	8d/)	.	8f/)	.	.	.	.	.	.	.	.	.	.	.
8r	.	8c'/J	.	8e-'/J	.	8ff#X\)	.	.	.	.	.	.	.	.	.
=204	=204	=204	=204	=204	=204	=204	=204	=204	=204	=204	=204	=204	=204	=204	=204
4GG/	.	4Bn/	.	4d/	.	4.gg^\	.	4.r	.	4.r	.	4.r	.	4.r	.
8r	.	8r	.	8r	.	.	.	.	.	.	.	.	.	.	.
=205	=205	=205	=205	=205	=205	=205	=205	=205	=205	=205	=205	=205	=205	=205	=205
4.r	.	4.r	.	4.r	.	8gg\L	.	4.r	.	4.r	.	4.r	.	4.r	.
.	.	.	.	.	.	8gg\	.	.	.	.	.	.	.	.	.
.	.	.	.	.	.	8gg\J	.	.	.	.	.	.	.	.	.
=206||	=206||	=206||	=206||	=206||	=206||	=206||	=206||	=206||	=206||	=206||	=206||	=206||	=206||	=206||	=206||
*k[]	*	*k[]	*	*k[]	*	*k[]	*	*	*	*	*	*k[]	*	*	*
*	*	*tremolo	*	*tremolo	*	*	*	*	*	*	*	*	*	*	*
!LO:TX:t=P:problem:błędnie wpisane znaki: F- zamiast E-, BB- zamiast AA-, C- zamiast BB-	!	!	!	!	!	!	!	!	!	!	!	!	!	!	!
!LO:TX:t=P:problem:kolejność znaków: F- BB- C-	!	!LO:TX:t=P:problem:kolejność znaków: e- B- A-	!	!LO:TX:t=P:problem:kolejność znaków: ee- b- a-	!	!LO:TX:t=P:problem:kolejność znaków: ee- b-, brak a-	!	!	!	!	!	!LO:TX:t=P:problem:kolejność znaków: a- b- ee-	!	!LO:TX:t=P:problem:brak znaków	!
!LO:TX:b:t=maior	!LO:DY:a	!LO:TX:b:t=maior	!LO:DY:a	!LO:TX:b:t=maior	!LO:DY:a	!LO:TX:b:t=maior	!	!LO:TX:b:t=major	!	!	!	!LO:TX:a:t=Majore	!	!LO:TX:b:t=major	!
4C/	p	8c\L	p	8en 8G/L	p	(4gg\	p	1.r	.	1.r	.	1.r	.	1.r	.
.	.	8c\	.	8en 8G/	.	.	.	.	.	.	.	.	.	.	.
8r	.	8c\J	.	8en 8G/J	.	8een\)	.	.	.	.	.	.	.	.	.
=207	=207	=207	=207	=207	=207	=207	=207	=207	=207	=207	=207	=207	=207	=207	=207
4.r	.	8c\L	.	8e 8G/L	.	(4cc\	.	.	.	.	.	.	.	.	.
.	.	8c\	.	8e 8G/	.	.	.	.	.	.	.	.	.	.	.
.	.	8c\J	.	8e 8G/J	.	8ee\)	.	.	.	.	.	.	.	.	.
=208	=208	=208	=208	=208	=208	=208	=208	=208	=208	=208	=208	=208	=208	=208	=208
4G\	.	8B/L	.	8f 8G/L	.	(8gg\L	.	.	.	.	.	.	.	.	.
.	.	8B/	.	8f 8G/	.	8ff\)	.	.	.	.	.	.	.	.	.
8r	.	8B/J	.	8f 8G/J	.	8dd'\J	.	.	.	.	.	.	.	.	.
=209	=209	=209	=209	=209	=209	=209	=209	=209	=209	=209	=209	=209	=209	=209	=209
4.r	.	8d\L	.	8f 8G/L	.	(4b/	.	.	.	.	.	.	.	.	.
.	.	8d\	.	8f 8G/	.	.	.	.	.	.	.	.	.	.	.
.	.	8d\J	.	8f 8G/J	.	8g/)	.	.	.	.	.	.	.	.	.
=210	=210	=210	=210	=210	=210	=210	=210	=210	=210	=210	=210	=210	=210	=210	=210
4c\	.	8c\L	.	8e 8G/L	.	(16cc\LL	.	1.r	.	1.r	.	1.r	.	1.r	.
.	.	.	.	.	.	16b\	.	.	.	.	.	.	.	.	.
.	.	8c\	.	8e 8G/	.	16cc\	.	.	.	.	.	.	.	.	.
.	.	.	.	.	.	16dd\	.	.	.	.	.	.	.	.	.
8r	.	8c\J	.	8e 8G/J	.	16ee\	.	.	.	.	.	.	.	.	.
!	!	!	!	!	!	!LO:TX:t=P:problem:16cc poprawiono na 16dd	!	!	!	!	!	!	!	!	!
.	.	.	.	.	.	16dd\JJ)	.	.	.	.	.	.	.	.	.
=211	=211	=211	=211	=211	=211	=211	=211	=211	=211	=211	=211	=211	=211	=211	=211
4A\	.	8A/L	.	8c/L	.	(16ee\LL	.	.	.	.	.	.	.	.	.
.	.	.	.	.	.	16dd\	.	.	.	.	.	.	.	.	.
.	.	8A/	.	8c/	.	16ee\	.	.	.	.	.	.	.	.	.
.	.	.	.	.	.	16ff#X\	.	.	.	.	.	.	.	.	.
8r	.	8A/J	.	8c/J	.	16gg\	.	.	.	.	.	.	.	.	.
.	.	.	.	.	.	16ff#\JJ)	.	.	.	.	.	.	.	.	.
*	*	*Xtremolo	*	*Xtremolo	*	*	*	*	*	*	*	*	*	*	*
=212	=212	=212	=212	=212	=212	=212	=212	=212	=212	=212	=212	=212	=212	=212	=212
4G\	.	4G/	.	(8B/L	.	(8gg\L	.	.	.	.	.	.	.	.	.
.	.	.	.	8A/)	.	8ff#X\)	.	.	.	.	.	.	.	.	.
8D\	.	8F#X/	.	8c'/J	.	8aa'\J	.	.	.	.	.	.	.	.	.
=213	=213	=213	=213	=213	=213	=213	=213	=213	=213	=213	=213	=213	=213	=213	=213
*	*	*tremolo	*	*tremolo	*	*	*	*	*	*	*	*	*	*	*
8G\L	.	8G/L	.	8B/L	.	4gg\	.	.	.	.	.	.	.	.	.
(16G\L	.	8G/	.	8B/	.	.	.	.	.	.	.	.	.	.	.
16F\	.	.	.	.	.	.	.	.	.	.	.	.	.	.	.
16E\	.	8G/J	.	8B/J	.	8gg\	.	.	.	.	.	.	.	.	.
16D\JJ)	.	.	.	.	.	.	.	.	.	.	.	.	.	.	.
=214	=214	=214	=214	=214	=214	=214	=214	=214	=214	=214	=214	=214	=214	=214	=214
!	!	!	!LO:DY:a	!	!LO:DY:a	!	!	!	!LO:DY:a	!	!LO:DY:a	!	!	!	!
4C/	f	8c\L	f	8e 8G/L	f	(4gg\	f	4.e/	f	4.cc\	f	[4.cc\	f	[4.een\	f
.	.	8c\	.	8e 8G/	.	.	.	.	.	.	.	.	.	.	.
8r	.	8c\J	.	8e 8G/J	.	8ee\)	.	.	.	.	.	.	.	.	.
=215	=215	=215	=215	=215	=215	=215	=215	=215	=215	=215	=215	=215	=215	=215	=215
!	!	!	!	!	!	!	!	!LO:N:vis=4	!	!	!	!	!	!	!
4.r	.	8c\L	.	8e 8G/L	.	(4cc\	.	4.e/	.	4.cc\	.	4.cc\]	.	4.ee\]	.
.	.	8c\	.	8e 8G/	.	.	.	.	.	.	.	.	.	.	.
.	.	8c\J	.	8e 8G/J	.	8ee\)	.	.	.	.	.	.	.	.	.
=216	=216	=216	=216	=216	=216	=216	=216	=216	=216	=216	=216	=216	=216	=216	=216
4G\	.	8B/L	.	8f 8G/L	.	(8gg\L	.	4.g/	.	4.dd\	.	[4.dd\	.	[4.ff\	.
.	.	8B/	.	8f 8G/	.	8ff\)	.	.	.	.	.	.	.	.	.
8r	.	8B/J	.	8f 8G/J	.	8dd'\J	.	.	.	.	.	.	.	.	.
=217	=217	=217	=217	=217	=217	=217	=217	=217	=217	=217	=217	=217	=217	=217	=217
4.r	.	8d\L	.	8f 8G/L	.	(4b/	.	4.g/	.	4.dd\	.	4.dd\]	.	4.ff\]	.
.	.	8d\	.	8f 8G/	.	.	.	.	.	.	.	.	.	.	.
.	.	8d\J	.	8f 8G/J	.	8g/)	.	.	.	.	.	.	.	.	.
=218	=218	=218	=218	=218	=218	=218	=218	=218	=218	=218	=218	=218	=218	=218	=218
!	!	!	!	!	!	!	!	!	!	!	!	!	!	!LO:SIC:v:s=4.aan	!
4F\	.	8f\L	.	8c/L	.	(16a/LL	.	4.r	.	4.r	.	8a/	.	4.aa-\	.
.	.	.	.	.	.	16g#X/	.	.	.	.	.	.	.	.	.
.	.	8f\	.	8c/	.	16a/	.	.	.	.	.	4cc\	.	.	.
.	.	.	.	.	.	16b/	.	.	.	.	.	.	.	.	.
8r	.	8f\J	.	8c/J	.	16cc/	.	.	.	.	.	.	.	.	.
.	.	.	.	.	.	16a/JJ)	.	.	.	.	.	.	.	.	.
=219	=219	=219	=219	=219	=219	=219	=219	=219	=219	=219	=219	=219	=219	=219	=219
!	!	!	!	!	!	!	!	!	!	!	!	!	!	!LO:SIC:v:s=4.bbn	!
4G\	.	8d\L	.	8f/L	.	(16b/LL	.	4.g/	.	4.dd\	.	4.ff\	.	4.bb-\	.
.	.	.	.	.	.	16a/	.	.	.	.	.	.	.	.	.
.	.	8d\	.	8f/	.	16b/	.	.	.	.	.	.	.	.	.
.	.	.	.	.	.	16cc/	.	.	.	.	.	.	.	.	.
8r	.	8d\J	.	8f/J	.	16dd/	.	.	.	.	.	.	.	.	.
.	.	.	.	.	.	16b/JJ)	.	.	.	.	.	.	.	.	.
*	*	*Xtremolo	*	*Xtremolo	*	*	*	*	*	*	*	*	*	*	*
=220	=220	=220	=220	=220	=220	=220	=220	=220	=220	=220	=220	=220	=220	=220	=220
4c\	.	4c\	.	(8e/L	.	(8cc\L	.	4cc\	.	4ee\	.	4ee\	.	4ccc\	.
.	.	.	.	8g/)	.	8ee\	.	.	.	.	.	.	.	.	.
!	!	!	!	!	!	!	!	!	!	!	!	!	!	!LO:SIC:v:s=8.bbn	!
8G\	.	8B\	.	8f'/J	.	8dd\J)	.	8g/	.	8dd\	.	8dd\	.	8bb-\	.
=221	=221	=221	=221	=221	=221	=221	=221	=221	=221	=221	=221	=221	=221	=221	=221
8c\L	.	4c\	.	4e/	.	4cc\	.	4e/	.	4cc\	.	4ee\	.	4ccc\	.
8G\	.	.	.	.	.	.	.	.	.	.	.	.	.	.	.
8C\J	.	8r	.	8r	.	8r	.	8r	.	8r	.	8r	.	8r	.
=222	=222	=222	=222	=222	=222	=222	=222	=222	=222	=222	=222	=222	=222	=222	=222
!	!	!	!	!	!LO:DY:a	!	!	!LO:TX:a:t=12	!	!LO:TX:a:t=12	!	!LO:TX:a:t=12.	!	!LO:TX:a:t=12.	!
[4.G\	p	(4.d\	.	(4.f/	p	(16g\LL	p	4.r	.	4.r	.	4.r	.	4.r	.
.	.	.	.	.	.	16b\	.	.	.	.	.	.	.	.	.
.	.	.	.	.	.	16dd\	.	.	.	.	.	.	.	.	.
.	.	.	.	.	.	16b\	.	.	.	.	.	.	.	.	.
.	.	.	.	.	.	16g\	.	.	.	.	.	.	.	.	.
.	.	.	.	.	.	16b\JJ)	.	.	.	.	.	.	.	.	.
=223	=223	=223	=223	=223	=223	=223	=223	=223	=223	=223	=223	=223	=223	=223	=223
4.G\]	.	4.c\	.	4.e/	.	(16cc\LL	.	4.r	.	4.r	.	4.r	.	4.r	.
.	.	.	.	.	.	16ee\	.	.	.	.	.	.	.	.	.
.	.	.	.	.	.	16gg\	.	.	.	.	.	.	.	.	.
.	.	.	.	.	.	16ee\	.	.	.	.	.	.	.	.	.
.	.	.	.	.	.	16cc\	.	.	.	.	.	.	.	.	.
.	.	.	.	.	.	16ee\JJ)	.	.	.	.	.	.	.	.	.
=224	=224	=224	=224	=224	=224	=224	=224	=224	=224	=224	=224	=224	=224	=224	=224
4.G\	.	4.d\)	.	4.f/	.	(16g\LL	.	4.r	.	4.r	.	4.r	.	4.r	.
.	.	.	.	.	.	16b\	.	.	.	.	.	.	.	.	.
.	.	.	.	.	.	16dd\	.	.	.	.	.	.	.	.	.
.	.	.	.	.	.	16b\	.	.	.	.	.	.	.	.	.
.	.	.	.	.	.	16g\	.	.	.	.	.	.	.	.	.
.	.	.	.	.	.	16b\JJ)	.	.	.	.	.	.	.	.	.
=225	=225	=225	=225	=225	=225	=225	=225	=225	=225	=225	=225	=225	=225	=225	=225
8G\L	.	8c\L	.	8e/L)	.	(8cc\L	.	4.r	.	4.r	.	4.r	.	4.r	.
8G\	.	8c\	.	8e/	.	8ee\	.	.	.	.	.	.	.	.	.
8G\J	.	8c\J	.	8e/J	.	8gg\J)	.	.	.	.	.	.	.	.	.
=226	=226	=226	=226	=226	=226	=226	=226	=226	=226	=226	=226	=226	=226	=226	=226
[4.G\	.	(4.d\	.	(4.f/	.	(16g\LL	.	4.r	.	4.r	.	4.r	.	4.r	.
.	.	.	.	.	.	16b\	.	.	.	.	.	.	.	.	.
.	.	.	.	.	.	16dd\	.	.	.	.	.	.	.	.	.
.	.	.	.	.	.	16b\	.	.	.	.	.	.	.	.	.
.	.	.	.	.	.	16g\	.	.	.	.	.	.	.	.	.
.	.	.	.	.	.	16b\JJ)	.	.	.	.	.	.	.	.	.
=227	=227	=227	=227	=227	=227	=227	=227	=227	=227	=227	=227	=227	=227	=227	=227
4.G\]	.	4.c\)	.	4.e/)	.	(16cc\LL	.	4.r	.	4.r	.	4.r	.	4.r	.
.	.	.	.	.	.	16ee\	.	.	.	.	.	.	.	.	.
.	.	.	.	.	.	16gg\	.	.	.	.	.	.	.	.	.
.	.	.	.	.	.	16ee\	.	.	.	.	.	.	.	.	.
.	.	.	.	.	.	16cc\	.	.	.	.	.	.	.	.	.
.	.	.	.	.	.	16ee\JJ)	.	.	.	.	.	.	.	.	.
=228	=228	=228	=228	=228	=228	=228	=228	=228	=228	=228	=228	=228	=228	=228	=228
4G\	.	8B/L	.	(4d/	.	(8gg\L	.	4.r	.	4.r	.	4.r	.	4.r	.
.	.	8G/	.	.	.	8ff#X\)	.	.	.	.	.	.	.	.	.
8D\	.	8F#X/J	.	8c/)	.	8aa'\J	.	.	.	.	.	.	.	.	.
=229	=229	=229	=229	=229	=229	=229	=229	=229	=229	=229	=229	=229	=229	=229	=229
4G\	.	4G/	.	4B/	.	4.gg^\	.	4.r	.	4.r	.	4.r	.	4.r	.
8r	.	8r	.	8r	.	.	.	.	.	.	.	.	.	.	.
=230	=230	=230	=230	=230	=230	=230	=230	=230	=230	=230	=230	=230	=230	=230	=230
4.r	.	4.r	.	4.r	.	(8gg\L	.	4.r	.	4.r	.	4.r	.	4.r	.
.	.	.	.	.	.	8ff#X\	.	.	.	.	.	.	.	.	.
.	.	.	.	.	.	8aa\J	.	.	.	.	.	.	.	.	.
=231	=231	=231	=231	=231	=231	=231	=231	=231	=231	=231	=231	=231	=231	=231	=231
4.r	.	4.r	.	4.r	.	8gg\L	.	4.r	.	4.r	.	4.r	.	4.r	.
.	.	.	.	.	.	8ff#X\	.	.	.	.	.	.	.	.	.
.	.	.	.	.	.	8aa\J	.	.	.	.	.	.	.	.	.
=232	=232	=232	=232	=232	=232	=232	=232	=232	=232	=232	=232	=232	=232	=232	=232
4.r	.	4.r	.	4.r	.	8gg\L	.	4.r	.	4.r	.	4.r	.	4.r	.
.	.	.	.	.	.	8ff#X\	.	.	.	.	.	.	.	.	.
.	.	.	.	.	.	8aa\J)	.	.	.	.	.	.	.	.	.
=233	=233	=233	=233	=233	=233	=233	=233	=233	=233	=233	=233	=233	=233	=233	=233
4.r	.	4.r	.	4.r	.	(8gg\L	.	4.r	.	4.r	.	4.r	.	4.r	.
.	.	.	.	.	.	8ffn\)	.	.	.	.	.	.	.	.	.
.	.	.	.	.	.	8dd'\J	.	.	.	.	.	.	.	.	.
=234	=234	=234	=234	=234	=234	=234	=234	=234	=234	=234	=234	=234	=234	=234	=234
*	*	*tremolo	*	*tremolo	*	*	*	*	*	*	*	*	*	*	*
!	!LO:DY:a	!	!LO:DY:a	!	!LO:DY:a	!	!	!	!	!	!	!	!	!LO:SIC:v:s=4.een	!
8C\L	f	8c\L	f	8e 8G/L	f	(4gg\	f	4.e/	.	4.cc\	f	[4.cc\	.	[4.ee-\	f
8E\	.	8c\	.	8e 8G/	.	.	.	.	.	.	.	.	.	.	.
8G\J	.	8c\J	.	8e 8G/J	.	8ee\)	.	.	.	.	.	.	.	.	.
=235	=235	=235	=235	=235	=235	=235	=235	=235	=235	=235	=235	=235	=235	=235	=235
*tremolo	*	*	*	*	*	*	*	*	*	*	*	*	*	*	*
8c\L	.	8c\L	.	8e 8G/L	.	(4cc\	.	4.e/	.	4.cc\	.	4.cc\]	.	4.ee-\]	.
8c\	.	8c\	.	8e 8G/	.	.	.	.	.	.	.	.	.	.	.
8c\J	.	8c\J	.	8e 8G/J	.	8ee\)	.	.	.	.	.	.	.	.	.
*Xtremolo	*	*	*	*	*	*	*	*	*	*	*	*	*	*	*
=236	=236	=236	=236	=236	=236	=236	=236	=236	=236	=236	=236	=236	=236	=236	=236
8GG/L	.	8B/L	.	8f 8G/L	.	(8gg\L	.	4.g/	.	4.dd\	.	[4.dd\	.	[4.ff\	.
8BB/	.	8B/	.	8f 8G/	.	8ff\)	.	.	.	.	.	.	.	.	.
8D/J	.	8B/J	.	8f 8G/J	.	8dd'\J	.	.	.	.	.	.	.	.	.
=237	=237	=237	=237	=237	=237	=237	=237	=237	=237	=237	=237	=237	=237	=237	=237
*tremolo	*	*	*	*	*	*	*	*	*	*	*	*	*	*	*
8G\L	.	8d\L	.	8f 8G/L	.	(4b/	.	4.g/	.	4.dd\	.	4.dd\]	.	4.ff\]	.
8G\	.	8d\	.	8f 8G/	.	.	.	.	.	.	.	.	.	.	.
8G\J	.	8d\J	.	8f 8G/J	.	8g/)	.	.	.	.	.	.	.	.	.
=238	=238	=238	=238	=238	=238	=238	=238	=238	=238	=238	=238	=238	=238	=238	=238
!	!	!	!	!	!	!	!	!	!	!	!	!	!	!LO:SIC:v:s=4.aan	!
8F\L	.	8f\L	.	8c/L	.	(16a/LL	.	4.r	.	4.r	.	8a/	.	4.aa-\	.
.	.	.	.	.	.	16g#X/	.	.	.	.	.	.	.	.	.
8F\	.	8f\	.	8c/	.	16a/	.	.	.	.	.	4cc\	.	.	.
.	.	.	.	.	.	16b/	.	.	.	.	.	.	.	.	.
8F\J	.	8f\J	.	8c/J	.	16cc/	.	.	.	.	.	.	.	.	.
.	.	.	.	.	.	16a/JJ)	.	.	.	.	.	.	.	.	.
=239	=239	=239	=239	=239	=239	=239	=239	=239	=239	=239	=239	=239	=239	=239	=239
!	!	!	!	!LO:TX:t=P:problem:w źródle jeden wykreślony takt	!	!	!	!LO:N:vis=4	!	!	!	!	!	!LO:SIC:v:s=4.bbn	!
8G\L	.	8d\L	.	8f/L	.	(16b/LL	.	4.g/	.	4.dd\	.	4.ff\	.	4.bb-\	.
.	.	.	.	.	.	16a/	.	.	.	.	.	.	.	.	.
8G\	.	8d\	.	8f/	.	16b/	.	.	.	.	.	.	.	.	.
.	.	.	.	.	.	16cc/)	.	.	.	.	.	.	.	.	.
8G\J	.	8d\J	.	8f/J	.	16dd'/	.	.	.	.	.	.	.	.	.
.	.	.	.	.	.	16b'/JJ	.	.	.	.	.	.	.	.	.
*Xtremolo	*	*Xtremolo	*	*Xtremolo	*	*	*	*	*	*	*	*	*	*	*
=240	=240	=240	=240	=240	=240	=240	=240	=240	=240	=240	=240	=240	=240	=240	=240
!	!	!	!LO:DY:a	!LO:TX:t=P:problem:mixed beam	!	!	!	!	!	!	!	!	!	!LO:SIC:v:s=4.een	!
8c\L	ff	8c\L	f	16e/LL	ff	(16cc\LL	ff	4.cc\	.	4.ee\	.	[4.cc\	.	4.ee-\	.
.	.	.	.	16ee 16cc\	.	16ccc 16ee\)	.	.	.	.	.	.	.	.	.
8E\	.	8e\	.	16ee 16cc\	.	16ccc 16ee'\	.	.	.	.	.	.	.	.	.
.	.	.	.	16ee 16cc\	.	16ccc 16ee'\	.	.	.	.	.	.	.	.	.
8G\J	.	8g\J	.	16ee 16cc\	.	16ccc 16ee'\	.	.	.	.	.	.	.	.	.
.	.	.	.	16eeJJ 16cc\	.	16cccJJ 16ee'\	.	.	.	.	.	.	.	.	.
=241	=241	=241	=241	=241	=241	=241	=241	=241	=241	=241	=241	=241	=241	=241	=241
*	*	*	*	*tremolo	*	*tremolo	*	*	*	*	*	*	*	*	*
!	!	!	!	!	!	!	!	!	!	!	!	!	!	!LO:SIC:v:s=4.een	!
8c\L	.	8cc\L	.	16ee 16cc\LL	.	16ccc 16ee\LL	.	4.cc\	.	4.ee\	.	4.cc\]	.	4.ee-\	.
.	.	.	.	16ee 16cc\	.	16ccc 16ee\	.	.	.	.	.	.	.	.	.
8e\	.	8ee\	.	16ee 16cc\	.	16ccc 16ee\	.	.	.	.	.	.	.	.	.
.	.	.	.	16ee 16cc\	.	16ccc 16ee\	.	.	.	.	.	.	.	.	.
8c\J	.	8cc\J	.	16ee 16cc\	.	16ccc 16ee\	.	.	.	.	.	.	.	.	.
.	.	.	.	16ee 16cc\JJ	.	16ccc 16ee\JJ	.	.	.	.	.	.	.	.	.
=242	=242	=242	=242	=242	=242	=242	=242	=242	=242	=242	=242	=242	=242	=242	=242
!	!	!	!	!	!	!	!	!	!	!	!	!	!	!LO:SIC:v:s=4.een	!
8AA/L	.	8A\L	.	16ee 16cc\LL	.	16ccc 16ee\LL	.	4.cc\	.	4.ee\	.	[4.cc\	.	4.ee-\	.
.	.	.	.	16ee 16cc\	.	16ccc 16ee\	.	.	.	.	.	.	.	.	.
8C/	.	8c\	.	16ee 16cc\	.	16ccc 16ee\	.	.	.	.	.	.	.	.	.
.	.	.	.	16ee 16cc\	.	16ccc 16ee\	.	.	.	.	.	.	.	.	.
8E/J	.	8e\J	.	16ee 16cc\	.	16ccc 16ee\	.	.	.	.	.	.	.	.	.
.	.	.	.	16ee 16cc\JJ	.	16ccc 16ee\JJ	.	.	.	.	.	.	.	.	.
=243	=243	=243	=243	=243	=243	=243	=243	=243	=243	=243	=243	=243	=243	=243	=243
!	!	!	!	!	!	!	!	!	!	!	!	!	!	!LO:SIC:v:s=4.een	!
8A\L	.	8a\L	.	16ee 16cc\LL	.	16ccc 16ee\LL	.	4.cc\	.	4.ee\	.	4.cc\_	.	4.ee-\	.
.	.	.	.	16ee 16cc\	.	16ccc 16ee\	.	.	.	.	.	.	.	.	.
8c\	.	8cc\	.	16ee 16cc\	.	16ccc 16ee\	.	.	.	.	.	.	.	.	.
.	.	.	.	16ee 16cc\	.	16ccc 16ee\	.	.	.	.	.	.	.	.	.
8A\J	.	8a\J	.	16ee 16cc\	.	16ccc 16ee\	.	.	.	.	.	.	.	.	.
.	.	.	.	16ee 16cc\JJ	.	16ccc 16ee\JJ	.	.	.	.	.	.	.	.	.
=244	=244	=244	=244	=244	=244	=244	=244	=244	=244	=244	=244	=244	=244	=244	=244
8F\L	.	8f\L	.	16dd 16b\LL	.	16ccc 16dd\LL	.	4.dd\	.	4.dd\	.	4.cc\]	.	4.dd\	.
.	.	.	.	16dd 16b\	.	16ccc 16dd\	.	.	.	.	.	.	.	.	.
8D\	.	8d\	.	16dd 16b\	.	16ccc 16dd\	.	.	.	.	.	.	.	.	.
.	.	.	.	16dd 16b\	.	16ccc 16dd\	.	.	.	.	.	.	.	.	.
8F\J	.	8f\J	.	16dd 16b\	.	16ccc 16dd\	.	.	.	.	.	.	.	.	.
.	.	.	.	16dd 16b\JJ	.	16ccc 16dd\JJ	.	.	.	.	.	.	.	.	.
=245	=245	=245	=245	=245	=245	=245	=245	=245	=245	=245	=245	=245	=245	=245	=245
!LO:TX:t=P:problem:mixed beam	!	!LO:TX:t=P:problem:mixed beam	!	!	!	!	!	!	!	!	!	!	!	!	!
8G\L	.	8g\L	.	16ff 16dd\LL	.	16bb 16dd\LL	.	4.g/	.	4.dd\	.	4.dd\	.	4.ff\	f
.	.	.	.	16ff 16dd\	.	16bb 16dd\	.	.	.	.	.	.	.	.	.
8GG\	.	8G\	.	16ff 16dd\	.	16bb 16dd\	.	.	.	.	.	.	.	.	.
.	.	.	.	16ff 16dd\	.	16bb 16dd\	.	.	.	.	.	.	.	.	.
8G\J	.	8g\J	.	16ff 16dd\	.	16bb 16dd\	.	.	.	.	.	.	.	.	.
.	.	.	.	16ff 16dd\JJ	.	16bb 16dd\JJ	.	.	.	.	.	.	.	.	.
=246	=246	=246	=246	=246	=246	=246	=246	=246	=246	=246	=246	=246	=246	=246	=246
!	!	!	!	!	!	!	!	!	!	!	!	!	!	!LO:SIC:v:s=4.een	!
8C\L	.	8c\L	.	16ee 16cc\LL	.	16ccc 16ee\LL	.	4.cc\	.	4.ee\	.	[4.cc\	.	4.ee-\	.
.	.	.	.	16ee 16cc\	.	16ccc 16ee\	.	.	.	.	.	.	.	.	.
8E\	.	8e\	.	16ee 16cc\	.	16ccc 16ee\	.	.	.	.	.	.	.	.	.
.	.	.	.	16ee 16cc\	.	16ccc 16ee\	.	.	.	.	.	.	.	.	.
8G\J	.	8g\J	.	16ee 16cc\	.	16ccc 16ee\	.	.	.	.	.	.	.	.	.
.	.	.	.	16ee 16cc\JJ	.	16ccc 16ee\JJ	.	.	.	.	.	.	.	.	.
=247	=247	=247	=247	=247	=247	=247	=247	=247	=247	=247	=247	=247	=247	=247	=247
!	!	!	!	!	!	!	!	!	!	!	!	!	!	!LO:SIC:v:s=4.een	!
8c\L	.	8cc\L	.	16ee 16cc\LL	.	16ccc 16ee\LL	.	4.cc\	.	4.ee\	.	4.cc\]	.	4.ee-\	.
.	.	.	.	16ee 16cc\	.	16ccc 16ee\	.	.	.	.	.	.	.	.	.
8e\	.	8ee\	.	16ee 16cc\	.	16ccc 16ee\	.	.	.	.	.	.	.	.	.
.	.	.	.	16ee 16cc\	.	16ccc 16ee\	.	.	.	.	.	.	.	.	.
8c\J	.	8cc\J	.	16ee 16cc\	.	16ccc 16ee\	.	.	.	.	.	.	.	.	.
.	.	.	.	16ee 16cc\JJ	.	16ccc 16ee\JJ	.	.	.	.	.	.	.	.	.
=248	=248	=248	=248	=248	=248	=248	=248	=248	=248	=248	=248	=248	=248	=248	=248
!	!	!	!	!	!	!	!	!	!	!	!	!	!	!LO:SIC:v:s=4.een	!
8AA/L	.	8A\L	.	16ee 16cc\LL	.	16ccc 16ee\LL	.	4.cc\	.	4.ee\	.	[4.cc\	.	4.ee-\	.
.	.	.	.	16ee 16cc\	.	16ccc 16ee\	.	.	.	.	.	.	.	.	.
8C/	.	8c\	.	16ee 16cc\	.	16ccc 16ee\	.	.	.	.	.	.	.	.	.
.	.	.	.	16ee 16cc\	.	16ccc 16ee\	.	.	.	.	.	.	.	.	.
8E/J	.	8e\J	.	16ee 16cc\	.	16ccc 16ee\	.	.	.	.	.	.	.	.	.
.	.	.	.	16ee 16cc\JJ	.	16ccc 16ee\JJ	.	.	.	.	.	.	.	.	.
=249	=249	=249	=249	=249	=249	=249	=249	=249	=249	=249	=249	=249	=249	=249	=249
!	!	!	!	!	!	!	!	!	!	!	!	!	!	!LO:SIC:v:s=4.een	!
8A\L	.	8a\L	.	16ee 16cc\LL	.	16ccc 16ee\LL	.	4.cc\	.	4.ee\	.	4.cc\_	.	4.ee-\	.
.	.	.	.	16ee 16cc\	.	16ccc 16ee\	.	.	.	.	.	.	.	.	.
8c\	.	8cc\	.	16ee 16cc\	.	16ccc 16ee\	.	.	.	.	.	.	.	.	.
.	.	.	.	16ee 16cc\	.	16ccc 16ee\	.	.	.	.	.	.	.	.	.
8A\J	.	8a\J	.	16ee 16cc\	.	16ccc 16ee\	.	.	.	.	.	.	.	.	.
.	.	.	.	16ee 16cc\JJ	.	16ccc 16ee\JJ	.	.	.	.	.	.	.	.	.
=250	=250	=250	=250	=250	=250	=250	=250	=250	=250	=250	=250	=250	=250	=250	=250
!	!	!	!	!	!	!LO:SIC:n=2:v:s=8.dd	!	!	!	!	!	!	!	!	!
8F\L	.	8f\L	.	16dd\LL	.	16ccc 16ee\LL	.	4.dd\	.	4.dd\	.	4.cc\]	.	4.dd\	.
.	.	.	.	16dd\	.	16ccc 16ee\	.	.	.	.	.	.	.	.	.
8D\	.	8d\	.	16dd\	.	16ccc 16ee\	.	.	.	.	.	.	.	.	.
.	.	.	.	16dd\	.	16ccc 16ee\	.	.	.	.	.	.	.	.	.
8F\J	.	8f\J	.	16dd\	.	16ccc 16ee\	.	.	.	.	.	.	.	.	.
.	.	.	.	16dd\JJ	.	16ccc 16ee\JJ	.	.	.	.	.	.	.	.	.
=251	=251	=251	=251	=251	=251	=251	=251	=251	=251	=251	=251	=251	=251	=251	=251
!LO:TX:t=P:problem:mixed beam	!	!LO:TX:t=P:problem:mixed beam	!	!	!	!	!	!	!	!	!	!	!	!	!
8G\L	.	8g\L	.	16ff 16dd\LL	.	16bb 16dd\LL	.	4.g/	.	4.dd\	.	4.dd\	.	4.ff\	.
.	.	.	.	16ff 16dd\	.	16bb 16dd\	.	.	.	.	.	.	.	.	.
8GG/	.	8G/	.	16ff 16dd\	.	16bb 16dd\	.	.	.	.	.	.	.	.	.
.	.	.	.	16ff 16dd\	.	16bb 16dd\	.	.	.	.	.	.	.	.	.
8G\J	.	8g\J	.	16ff 16dd\	.	16bb 16dd\	.	.	.	.	.	.	.	.	.
.	.	.	.	16ff 16dd\JJ	.	16bb 16dd\JJ	.	.	.	.	.	.	.	.	.
*	*	*	*	*Xtremolo	*	*Xtremolo	*	*	*	*	*	*	*	*	*
=252	=252	=252	=252	=252	=252	=252	=252	=252	=252	=252	=252	=252	=252	=252	=252
!	!	!	!	!	!	!	!	!	!	!	!	!	!	!LO:SIC:v:s=8.een	!
4C/	.	4c\	.	4ee 4cc\	.	4ccc 4ee\	.	(8cc\L	p	(8ee\L	.	(8cc\L	.	(8ee-\L	p
.	.	.	.	.	.	.	.	8ee\)	.	8gg\)	.	8ee\)	.	8gg\)	.
8r	.	8r	.	8r	.	8r	.	8ee'\J	.	8gg'\J	.	8ee'\J	.	8gg'\J	.
=253	=253	=253	=253	=253	=253	=253	=253	=253	=253	=253	=253	=253	=253	=253	=253
4.r	.	4.r	.	4.r	.	4.r	.	8ee\L	.	(8gg\L	.	(8ee\L	.	(8gg\L	.
!	!	!	!	!	!	!	!	!	!	!	!	!	!	!LO:SIC:v:s=8.aan	!
.	.	.	.	.	.	.	.	8ff\	.	8aa\)	.	8ff\)	.	8aa-\)	.
.	.	.	.	.	.	.	.	8ee\J	.	8gg'\J	.	8ee'\J	.	8gg'\J	.
=254	=254	=254	=254	=254	=254	=254	=254	=254	=254	=254	=254	=254	=254	=254	=254
!	!LO:DY:a	!	!LO:DY:a	!	!LO:DY:a	!	!LO:DY:a	!	!	!	!	!	!	!	!
4G\	p	4G/	p	(8e/L	p	(8g/L	pp	8ee\L	.	(8gg\L	.	(8ee\L	.	(8gg\L	.
!	!	!	!	!	!	!	!	!	!	!	!	!	!	!LO:SIC:v:s=8.een	!
.	.	.	.	8c/	.	8e/)	.	8cc\	.	8ee\)	.	8cc\)	.	8ee-\)	.
8r	.	8r	.	8e/J)	.	8g'/J	.	8ee\J	.	8gg'\J	.	8ee'\J	.	8gg'\J	.
=255	=255	=255	=255	=255	=255	=255	=255	=255	=255	=255	=255	=255	=255	=255	=255
4GG/	.	4G/	.	(8d/L	.	(8f/L	.	8dd\L	.	8ff\L	.	(8dd\L	.	(8ff\L	.
!	!	!	!	!	!	!	!	!	!	!	!	!	!	!LO:SIC:v:s=8.een	!
.	.	.	.	8c/	.	8e/	.	8cc\	.	8ee\	.	8cc\)	.	8ee-\)	.
8r	.	8r	.	8B/J)	.	8d/J)	.	8g\J	.	8dd\J	.	8b'\J	.	8dd'\J	.
=256	=256	=256	=256	=256	=256	=256	=256	=256	=256	=256	=256	=256	=256	=256	=256
4C/	.	4G/	.	4c/	.	4e/	.	(8cc\L	.	(8ee\L	.	(8cc\L	.	(8cc\L	.
.	.	.	.	.	.	.	.	8ee\)	.	8gg\)	.	8ee\)	.	8gg\)	.
8r	.	8r	.	8r	.	8r	.	8ee\J	.	8gg'\J	.	8ee'\J	.	8gg'\J	.
=257	=257	=257	=257	=257	=257	=257	=257	=257	=257	=257	=257	=257	=257	=257	=257
4.r	.	4.r	.	4.r	.	4.r	.	(8ee\L	.	(8gg\L	.	(8ee\L	.	(8gg\L	.
!	!	!	!	!	!	!	!	!	!	!	!	!	!	!LO:SIC:v:s=8.aan	!
.	.	.	.	.	.	.	.	8ff\)	.	8aa\)	.	8ff\)	.	8aa-\)	.
.	.	.	.	.	.	.	.	8ee'\J	.	8gg'\J	.	8ee'\J	.	8gg'\J	.
=258	=258	=258	=258	=258	=258	=258	=258	=258	=258	=258	=258	=258	=258	=258	=258
4G\	.	4G/	.	(8e/L	.	(8g/L	.	(8ee\L	.	8gg\L	.	8ee\L	.	(8gg\L	.
!	!	!	!	!	!	!	!	!	!	!	!	!	!	!LO:SIC:v:s=8.een	!
.	.	.	.	8c/	.	8e/)	.	8cc\)	.	8ee\	.	8cc\	.	8ee-\)	.
8r	.	8r	.	8e/J)	.	8g'/J	.	8ee'\J	.	8gg\J	.	8ee\J	.	8gg'\J	.
=259	=259	=259	=259	=259	=259	=259	=259	=259	=259	=259	=259	=259	=259	=259	=259
4GG/	.	4G/	.	8d/L	.	(8f/L	.	(8dd\L	.	8ff\L	.	8dd\L	.	(8ff\L	.
!	!	!	!	!	!	!	!	!	!	!	!	!	!	!LO:SIC:v:s=8.een	!
.	.	.	.	8c/	.	8e/)	.	8cc\)	.	8ee\	.	8cc\	.	8ee-\)	.
8r	.	8r	.	8B/J	.	8d'/J	.	8g'\J	.	8dd\J	.	8b\J	.	8dd'\J	.
=260	=260	=260	=260	=260	=260	=260	=260	=260	=260	=260	=260	=260	=260	=260	=260
!	!LO:DY:a	!	!	!	!	!	!	!	!	!	!	!	!	!	!
8C\L	f	8c/L	f	8c/L	.	8c/L	f	8e/L	.	8cc\L	.	8cc\L	f	(8cc\L	f
8E\	.	8c/	.	8e/	.	8cc 8e/	.	8e/	.	8cc\	.	8ee\	.	8ccc\)	.
8G\J	.	8G/J	.	8e/J	.	8ccJ 8e/	.	8e/J	.	8cc\J	.	8ee\J	.	8ccc'\J	.
=261	=261	=261	=261	=261	=261	=261	=261	=261	=261	=261	=261	=261	=261	=261	=261
*	*	*	*	*	*	*	*	*	*	*	*	*	*	*tremolo	*
8c\L	.	8E/L	.	8e/L	.	8ccL 8e/	.	8e/L	.	8cc\L	.	8ee\L	.	8ccc\L	.
8G\	.	8G/	.	8e 8G/	.	8cc 8e/	.	8e/	.	8cc\	.	8ee\	.	8ccc\	.
8E\J	.	8E/J	.	8e/J	.	8ccJ 8e/	.	8e/J	.	8cc\J	.	8ee\J	.	8ccc\J	.
*	*	*	*	*	*	*	*	*	*	*	*	*	*	*Xtremolo	*
=262	=262	=262	=262	=262	=262	=262	=262	=262	=262	=262	=262	=262	=262	=262	=262
4C/	.	4C/	.	4e 4G/	.	4cc 4e/	.	4e/	.	4cc\	.	4ee\	.	4ccc\	.
8r	.	8r	.	8r	.	8r	.	8r	.	8r	.	8r	.	8r	.
=263	=263	=263	=263	=263	=263	=263	=263	=263	=263	=263	=263	=263	=263	=263	=263
4C/	.	4c 4C/	.	4cc 4e/	.	4ccc 4ee\	.	4e/	.	4cc\	.	4ee\	.	4ccc\	.
8r	.	8r	.	8r	.	8r	.	8r	.	8r	.	8r	.	8r	.
=264	=264	=264	=264	=264	=264	=264	=264	=264	=264	=264	=264	=264	=264	=264	=264
!	!	!	!	!	!	!	!	!	!	!	!	!	!	!LO:TX:t=P:problem:pominięty fragment	!
4C/	.	4c 4C/	.	4cc 4e/	.	4ccc 4ee\	.	4e/	.	4cc\	.	4ee\	.	4.ryy	.
8r	.	8r	.	8r	.	8r	.	8r	.	8r	.	8r	.	.	.
==	==	==	==	==	==	==	==	==	==	==	==	==	==	==	==
*-	*-	*-	*-	*-	*-	*-	*-	*-	*-	*-	*-	*-	*-	*-	*-
!!title: @{OTL};
!!!RDF**kern: > = above
!!!RDF**kern: < = below
!!!RDF**kern: | = vertical stroke
!!!RDF**kern: N = linked
!!!RDF**kern: i = editorial accidental
!!!RDF**kern: l = terminal long
!!!AIN: 1 bass 1 cor 1 empty 2 oboe 1 viola 2 violn
!!!ENC: Katarzyna Serwa
!!!END: 2020-10-07
!!!EED: Wojciech Jakubiak-Danek
!!!EST: 2022-01-02
!!!URL-scan: http://repozytorium.nifc.pl/skany/pl-cz-nut--iii-557
!!!ONB-nifc: UWAGA: części Sinfonii: Allegro vivace, Andante expressivo, Rondo
